; HEADER_BLOCK_START
; generated by OrcaSlicer 2.3.0 on 2025-07-21 at 23:23:30
; total layer number: 120
;_GP_TOTAL_LAYER_NUMBER_PLACEHOLDER
; filament_density: 1.27
; filament_diameter: 1.75
; max_z_height: 24.00
; HEADER_BLOCK_END

; THUMBNAIL_BLOCK_START

;
; THUMBNAIL_BLOCK_END

; external perimeters extrusion width = 0.42mm
; perimeters extrusion width = 0.45mm
; infill extrusion width = 0.45mm
; solid infill extrusion width = 0.42mm
; top infill extrusion width = 0.42mm
; first layer extrusion width = 0.50mm

; external perimeters extrusion width = 0.42mm
; perimeters extrusion width = 0.45mm
; infill extrusion width = 0.45mm
; solid infill extrusion width = 0.42mm
; top infill extrusion width = 0.42mm
; first layer extrusion width = 0.50mm

; external perimeters extrusion width = 0.42mm
; perimeters extrusion width = 0.45mm
; infill extrusion width = 0.45mm
; solid infill extrusion width = 0.42mm
; top infill extrusion width = 0.42mm
; first layer extrusion width = 0.50mm

; external perimeters extrusion width = 0.42mm
; perimeters extrusion width = 0.45mm
; infill extrusion width = 0.45mm
; solid infill extrusion width = 0.42mm
; top infill extrusion width = 0.42mm
; first layer extrusion width = 0.50mm

; external perimeters extrusion width = 0.42mm
; perimeters extrusion width = 0.45mm
; infill extrusion width = 0.45mm
; solid infill extrusion width = 0.42mm
; top infill extrusion width = 0.42mm
; first layer extrusion width = 0.50mm

; EXECUTABLE_BLOCK_START
EXCLUDE_OBJECT_DEFINE NAME=MeasuringWheelArmAttachment-Guide-Body-double.stl_id_0_copy_0 CENTER=162,134.638 POLYGON=[[142,130.888],[142,105.638],[142.074,104.699],[142.294,103.784],[142.654,102.914],[143.146,102.111],[143.757,101.395],[144.473,100.784],[145.276,100.292],[146.146,99.9313],[147.061,99.7115],[148,99.6377],[172,99.6377],[176,99.6377],[176.939,99.7115],[177.854,99.9313],[178.724,100.292],[179.527,100.784],[180.243,101.395],[180.854,102.111],[181.346,102.914],[181.706,103.784],[181.926,104.699],[182,105.638],[182,130.27],[182,163.638],[181.926,164.576],[181.706,165.492],[181.346,166.362],[180.854,167.164],[180.243,167.88],[179.527,168.492],[178.724,168.984],[177.854,169.344],[176.939,169.564],[176,169.638],[157.429,169.638],[148,169.638],[147.061,169.564],[146.146,169.344],[145.276,168.984],[144.473,168.492],[143.757,167.88],[143.146,167.164],[142.654,166.362],[142.294,165.492],[142.074,164.576],[142,163.638],[142,130.888]]
EXCLUDE_OBJECT_DEFINE NAME=MeasuringWheelArm-Body.stl_id_1_copy_0 CENTER=127,129.638 POLYGON=[[117,89.6377],[137,89.6377],[137,163.638],[136.926,164.576],[136.706,165.492],[136.346,166.362],[135.854,167.164],[135.243,167.88],[134.527,168.492],[133.724,168.984],[132.854,169.344],[131.939,169.564],[131,169.638],[123,169.638],[122.061,169.564],[121.146,169.344],[120.276,168.984],[119.473,168.492],[118.757,167.88],[118.146,167.164],[117.654,166.362],[117.294,165.492],[117.074,164.576],[117,163.638],[117,89.6377]]
EXCLUDE_OBJECT_DEFINE NAME=MeasuringWheelArm-Body.stl_id_2_copy_0 CENTER=102,129.638 POLYGON=[[92,89.6377],[112,89.6377],[112,163.638],[111.926,164.576],[111.706,165.492],[111.346,166.362],[110.854,167.164],[110.243,167.88],[109.527,168.492],[108.724,168.984],[107.854,169.344],[106.939,169.564],[106,169.638],[98,169.638],[97.0614,169.564],[96.1459,169.344],[95.2761,168.984],[94.4733,168.492],[93.7574,167.88],[93.1459,167.164],[92.654,166.362],[92.2937,165.492],[92.0739,164.576],[92,163.638],[92,89.6377]]
EXCLUDE_OBJECT_DEFINE NAME=PartLinker-Body.stl_id_3_copy_0 CENTER=81,125.362 POLYGON=[[75,114.362],[87,114.362],[87,136.362],[75,136.362],[75,114.362]]
EXCLUDE_OBJECT_DEFINE NAME=PartLinker-Body.stl_id_4_copy_0 CENTER=81,98.3623 POLYGON=[[75,87.3623],[87,87.3623],[87,109.362],[75,109.362],[75,87.3623]]
M106 S0
M106 P2 S0
;TYPE:Custom
;;===== date: 20240520 =====================
;printer_model:Elegoo Centauri Carbon
;initial_filament:PETG
;curr_bed_type:Textured PEI Plate
M400 ; wait for buffer to clear
M220 S100 ;Set the feed speed to 100%
M221 S100 ;Set the flow rate to 100%
M104 S140
M190 S80
G90
SET_PRINT_STATS_INFO TOTAL_LAYER=120
G28 ;home
M729 ;Clean Nozzle


;=============turn on fans to prevent PLA jamming=================


;enable_pressure_advance:false
;This value is called if pressure advance is enabled

M204 S5000 ;Call exterior wall print acceleration


G1 X128.5 Y-1.2 F20000
G1 Z0.3 F900
M109 S245
M83
G92 E0 ;Reset Extruder
G1 F4800 
G1 X-1.2 E10.156 ;Draw the first line
G1 Y98.8 E7.934
G1 X-0.5 Y100 E0.1
G1 Y-0.3 E7.934
G1 X78.5 E6.284
G1 F960 
G1 X98.5 E2
G1 F4800 
G1 X118.5 E2
G1 F960 
G1 X138.5 E2
G1 F4800 
G1 X158.5 E2
G1 F4800 
G1 X178.5 E2
;End PA test.


G3 I-1 J0 Z0.6 F1200.0 ;Move to side a little
G1 F20000
G92 E0 ;Reset Extruder
;LAYER_COUNT:120
;LAYER:0
G90
G21
M83 ; use relative distances for extrusion
; Filament gcode
M106 P2 S0
;LAYER_CHANGE
;Z:0.2
;HEIGHT:0.2
;BEFORE_LAYER_CHANGE
;0.2
G92 E0

G1 E-.8 F1800
;LAYER:1
SET_PRINT_STATS_INFO CURRENT_LAYER=1

;_SET_FAN_SPEED_CHANGING_LAYER
SET_VELOCITY_LIMIT ACCEL=500
EXCLUDE_OBJECT_START NAME=MeasuringWheelArmAttachment-Guide-Body-double.stl_id_0_copy_0
G1 X149.462 Y160.593 F30000
G1 Z.6
G1 Z.2
G1 E.8 F1800
;TYPE:Inner wall
;WIDTH:0.5
G1 F3000
G1 X148.932 Y159.727 E.03742
G1 X148.523 Y158.74 E.03936
G1 X148.274 Y157.702 E.03936
G1 X148.193 Y156.669 E.03819
G1 X148.193 Y112.606 E1.62445
G1 X148.274 Y111.573 E.03819
G1 X148.523 Y110.535 E.03936
G1 X148.932 Y109.548 E.03936
G1 X149.489 Y108.638 E.03937
G1 X150.187 Y107.821 E.03962
G1 X150.999 Y107.127 E.03937
G1 X151.91 Y106.57 E.03936
G1 X152.89 Y106.164 E.03911
G1 X153.936 Y105.912 E.03966
G1 X154.968 Y105.831 E.03818
G1 X169.032 Y105.831 E.51847
G1 X170.068 Y105.912 E.03832
G1 X171.106 Y106.162 E.03934
G1 X172.09 Y106.569 E.03928
G1 X173.001 Y107.127 E.03938
G1 X173.813 Y107.821 E.03937
G1 X174.511 Y108.638 E.03962
G1 X175.068 Y109.548 E.03937
G1 X175.477 Y110.535 E.03936
G1 X175.726 Y111.573 E.03936
G1 X175.807 Y112.606 E.03819
G1 X175.807 Y156.676 E1.62468
G1 X175.726 Y157.702 E.03795
G1 X175.477 Y158.74 E.03936
G1 X175.068 Y159.727 E.03936
G1 X174.511 Y160.638 E.03937
G1 X173.813 Y161.455 E.03962
G1 X173.001 Y162.148 E.03937
G1 X172.09 Y162.706 E.03937
G1 X171.1 Y163.115 E.03948
G1 X170.064 Y163.364 E.0393
G1 X169.032 Y163.445 E.03816
G1 X154.968 Y163.445 E.51847
G1 X153.932 Y163.363 E.03832
G1 X152.894 Y163.114 E.03934
G1 X151.91 Y162.706 E.03928
G1 X150.999 Y162.148 E.03938
G1 X150.187 Y161.455 E.03937
G1 X149.489 Y160.638 E.03962
G1 X149.482 Y160.627 E.00047
G1 X149.851 Y160.354 F30000
;TYPE:Outer wall
G1 F3000
G1 X149.34 Y159.519 E.0361
G1 X148.959 Y158.599 E.03671
G1 X148.727 Y157.63 E.03671
G1 X148.65 Y156.651 E.0362
G1 X148.65 Y112.624 E1.62312
G1 X148.727 Y111.645 E.0362
G1 X148.959 Y110.677 E.03671
G1 X149.34 Y109.756 E.03671
G1 X149.86 Y108.907 E.03671
G1 X150.511 Y108.145 E.03696
G1 X151.269 Y107.498 E.03672
G1 X152.118 Y106.978 E.03671
G1 X153.032 Y106.6 E.03647
G1 X154.008 Y106.365 E.03701
G1 X154.986 Y106.288 E.03618
G1 X169.014 Y106.288 E.51714
G1 X169.996 Y106.365 E.03633
G1 X170.964 Y106.598 E.03669
G1 X171.882 Y106.978 E.03663
G1 X172.731 Y107.498 E.03673
G1 X173.489 Y108.145 E.03672
G1 X174.14 Y108.907 E.03696
G1 X174.66 Y109.756 E.03671
G1 X175.041 Y110.677 E.03671
G1 X175.273 Y111.645 E.03671
G1 X175.35 Y112.624 E.0362
G1 X175.35 Y156.658 E1.62336
G1 X175.273 Y157.63 E.03597
G1 X175.041 Y158.599 E.03671
G1 X174.66 Y159.519 E.03671
G1 X174.14 Y160.368 E.03671
G1 X173.489 Y161.131 E.03696
G1 X172.731 Y161.777 E.03672
G1 X171.882 Y162.297 E.03671
G1 X170.959 Y162.679 E.03683
G1 X169.992 Y162.911 E.03665
G1 X169.014 Y162.988 E.03618
G1 X154.986 Y162.988 E.51714
G1 X154.004 Y162.91 E.03633
G1 X153.036 Y162.678 E.03669
G1 X152.118 Y162.297 E.03663
G1 X151.269 Y161.777 E.03673
G1 X150.511 Y161.131 E.03672
G1 X149.875 Y160.386 E.0361
G1 E-.728 F1800
;WIPE_START
G1 F30000
G1 X149.34 Y159.519 E-.06113
G1 X149.271 Y159.352 E-.01087
;WIPE_END
G1 X152.761 Y152.564 Z.6
G1 X179.05 Y101.438 Z.6
G1 Z.2
G1 E.8 F1800
;TYPE:Inner wall
G1 F3000
G1 X179.674 Y101.972 E.03027
G1 X180.199 Y102.587 E.0298
G1 X180.625 Y103.281 E.03003
G1 X180.936 Y104.034 E.03003
G1 X181.127 Y104.826 E.03003
G1 X181.193 Y105.669 E.0312
G1 X181.193 Y163.606 E2.1359
G1 X181.127 Y164.45 E.0312
G1 X180.936 Y165.242 E.03003
G1 X180.625 Y165.994 E.03003
G1 X180.199 Y166.689 E.03003
G1 X179.67 Y167.308 E.03003
G1 X179.051 Y167.837 E.03003
G1 X178.356 Y168.262 E.03003
G1 X177.604 Y168.574 E.03003
G1 X176.812 Y168.764 E.03003
G1 X175.968 Y168.831 E.0312
G1 X148.032 Y168.831 E1.0299
G1 X147.182 Y168.763 E.03144
G1 X146.396 Y168.574 E.02979
G1 X145.644 Y168.262 E.03003
G1 X144.949 Y167.837 E.03003
G1 X144.33 Y167.308 E.03003
G1 X143.801 Y166.689 E.03003
G1 X143.375 Y165.994 E.03003
G1 X143.064 Y165.242 E.03003
G1 X142.873 Y164.45 E.03003
G1 X142.807 Y163.606 E.0312
G1 X142.807 Y105.669 E2.1359
G1 X142.873 Y104.826 E.0312
G1 X143.064 Y104.034 E.03003
G1 X143.375 Y103.281 E.03003
G1 X143.801 Y102.587 E.03003
G1 X144.33 Y101.967 E.03003
G1 X144.949 Y101.439 E.03003
G1 X145.644 Y101.013 E.03003
G1 X146.396 Y100.701 E.03003
G1 X147.188 Y100.511 E.03003
G3 X148.499 Y100.445 I1.077 J8.291 E.04842
G1 X175.968 Y100.445 E1.0127
G1 X176.812 Y100.511 E.0312
G1 X177.604 Y100.701 E.03003
G1 X178.356 Y101.013 E.03003
G1 X179.016 Y101.417 E.02854
G1 X179.32 Y101.068 F30000
;TYPE:Outer wall
G1 F3000
G1 X179.999 Y101.648 E.03292
G1 X180.57 Y102.317 E.03244
G1 X181.033 Y103.073 E.03268
G1 X181.372 Y103.892 E.03268
G1 X181.579 Y104.754 E.03268
G1 X181.65 Y105.651 E.03319
G1 X181.65 Y163.624 E2.13722
G1 X181.579 Y164.521 E.03319
G1 X181.372 Y165.383 E.03268
G1 X181.033 Y166.202 E.03268
G1 X180.57 Y166.958 E.03268
G1 X179.994 Y167.632 E.03268
G1 X179.32 Y168.208 E.03268
G1 X178.565 Y168.671 E.03268
G1 X177.746 Y169.01 E.03268
G1 X176.884 Y169.217 E.03268
G1 X175.986 Y169.288 E.03319
G1 X148.014 Y169.288 E1.03123
G1 X147.11 Y169.216 E.03343
G1 X146.254 Y169.01 E.03244
G1 X145.435 Y168.671 E.03268
G1 X144.68 Y168.208 E.03268
G1 X144.006 Y167.632 E.03268
G1 X143.43 Y166.958 E.03268
G1 X142.967 Y166.202 E.03268
G1 X142.628 Y165.383 E.03268
G1 X142.421 Y164.521 E.03268
G1 X142.35 Y163.624 E.03319
G1 X142.35 Y105.651 E2.13722
G1 X142.421 Y104.754 E.03319
G1 X142.628 Y103.892 E.03268
G1 X142.967 Y103.073 E.03268
G1 X143.43 Y102.317 E.03268
G1 X144.006 Y101.643 E.03268
G1 X144.68 Y101.068 E.03268
G1 X145.435 Y100.604 E.03268
G1 X146.254 Y100.265 E.03268
G1 X147.116 Y100.058 E.03268
G3 X148.499 Y99.988 I1.14 J8.745 E.05108
G1 X175.986 Y99.988 E1.01337
G1 X176.884 Y100.058 E.03319
G1 X177.746 Y100.265 E.03268
G1 X178.565 Y100.604 E.03268
G1 X179.286 Y101.047 E.0312
G1 E-.728 F1800
;WIPE_START
G1 F30000
G1 X179.999 Y101.648 E-.05595
G1 X180.172 Y101.852 E-.01605
;WIPE_END
G1 X178.382 Y101.296 Z.6
G1 Z.2
G1 E.8 F1800
;TYPE:Bottom surface
;WIDTH:0.502523
G1 F6300
G1 X179.371 Y102.286 E.05188
G1 X179.847 Y102.843 E.02714
G1 X180.237 Y103.479 E.02766
G1 X180.465 Y104.029 E.02208
G1 X177.608 Y101.173 E.14974
G1 X177.469 Y101.116 E.00558
G1 X176.725 Y100.94 E.02835
G1 X180.698 Y104.913 E.20827
G1 X180.753 Y105.618 E.02623
G1 X176.02 Y100.884 E.24816
G2 X175.364 Y100.879 I-.362 J4.162 E.02432
G1 X180.759 Y106.273 E.2828
G1 X180.759 Y106.923 E.02409
G1 X174.714 Y100.879 E.31688
G1 X174.064 Y100.879 E.02409
G1 X180.759 Y107.573 E.35095
G1 X180.759 Y108.223 E.02409
G1 X173.414 Y100.879 E.38502
G1 X172.764 Y100.879 E.02409
G1 X180.759 Y108.873 E.4191
G1 X180.759 Y109.523 E.02409
G1 X172.114 Y100.879 E.45317
G1 X171.464 Y100.879 E.02409
G1 X180.759 Y110.173 E.48725
G1 X180.759 Y110.823 E.02409
G1 X170.814 Y100.879 E.52132
G1 X170.164 Y100.879 E.02409
G1 X180.759 Y111.473 E.5554
G1 X180.759 Y112.123 E.02409
G1 X169.514 Y100.879 E.58947
G1 X168.864 Y100.879 E.02409
G1 X180.759 Y112.773 E.62355
G1 X180.759 Y113.423 E.02409
G1 X168.215 Y100.879 E.65762
G1 X167.565 Y100.879 E.02409
G1 X180.759 Y114.073 E.6917
G1 X180.759 Y114.723 E.02409
G1 X175.506 Y109.471 E.27536
G1 X175.457 Y109.351 E.00481
G1 X174.863 Y108.382 E.04212
G1 X174.121 Y107.513 E.04237
G1 X173.257 Y106.775 E.04212
G1 X172.288 Y106.181 E.04213
G1 X172.167 Y106.131 E.00484
G1 X166.915 Y100.879 E.27536
G1 X166.265 Y100.879 E.02409
G1 X171.099 Y105.714 E.25346
G1 X170.244 Y105.508 E.03262
G1 X165.615 Y100.879 E.24268
G1 X164.965 Y100.879 E.02409
G1 X169.519 Y105.434 E.23877
G2 X168.832 Y105.396 I-.579 J4.33 E.02554
G1 X164.315 Y100.879 E.23682
G1 X163.665 Y100.879 E.02409
G1 X168.182 Y105.396 E.23682
G1 X167.532 Y105.396 E.02409
G1 X163.015 Y100.879 E.23682
G1 X162.365 Y100.879 E.02409
G1 X166.882 Y105.396 E.23682
G1 X166.232 Y105.396 E.02409
G1 X161.715 Y100.879 E.23682
G1 X161.065 Y100.879 E.02409
G1 X165.582 Y105.396 E.23682
G1 X164.932 Y105.396 E.02409
G1 X160.415 Y100.879 E.23682
G1 X159.765 Y100.879 E.02409
G1 X164.282 Y105.396 E.23682
G1 X163.632 Y105.396 E.02409
G1 X159.115 Y100.879 E.23682
G1 X158.465 Y100.879 E.02409
G1 X162.982 Y105.396 E.23682
G1 X162.332 Y105.396 E.02409
G1 X157.815 Y100.879 E.23682
G1 X157.165 Y100.879 E.02409
G1 X161.682 Y105.396 E.23682
G1 X161.032 Y105.396 E.02409
G1 X156.515 Y100.879 E.23682
G1 X155.865 Y100.879 E.02409
G1 X160.382 Y105.396 E.23682
G1 X159.732 Y105.396 E.02409
G1 X155.215 Y100.879 E.23682
G1 X154.565 Y100.879 E.02409
G1 X159.082 Y105.396 E.23682
G1 X158.432 Y105.396 E.02409
G1 X153.915 Y100.879 E.23682
G1 X153.265 Y100.879 E.02409
G1 X157.782 Y105.396 E.23682
G1 X157.132 Y105.396 E.02409
G1 X152.615 Y100.879 E.23682
G1 X151.965 Y100.879 E.02409
G1 X156.482 Y105.396 E.23682
G1 X155.832 Y105.396 E.02409
G1 X151.315 Y100.879 E.23682
G1 X150.665 Y100.879 E.02409
G1 X155.183 Y105.396 E.23682
G2 X154.563 Y105.427 I-.116 J3.955 E.02301
G1 X150.015 Y100.879 E.23842
G1 X149.365 Y100.879 E.02409
G1 X153.96 Y105.474 E.2409
G1 X153.868 Y105.482 E.00345
G1 X153.425 Y105.588 E.0169
G1 X148.715 Y100.879 E.24688
G1 X148.065 Y100.879 E.02409
G1 X152.901 Y105.714 E.2535
G2 X152.423 Y105.887 I.309 J1.601 E.0189
G1 X147.461 Y100.925 E.26012
G2 X146.911 Y101.024 I.038 J1.789 E.02083
G1 X151.964 Y106.077 E.2649
G2 X151.53 Y106.293 I.466 J1.48 E.01804
G1 X146.404 Y101.168 E.2687
G1 X145.945 Y101.358 E.01844
G1 X151.127 Y106.54 E.27166
G1 X150.726 Y106.79 E.01749
G1 X145.529 Y101.593 E.27246
G1 X145.136 Y101.85 E.0174
G1 X150.375 Y107.089 E.27466
G1 X150.025 Y107.388 E.01709
G1 X144.786 Y102.149 E.27465
G2 X144.465 Y102.478 I.878 J1.178 E.01711
G1 X149.704 Y107.718 E.27467
G1 X149.405 Y108.068 E.01709
G1 X144.165 Y102.829 E.27467
G1 X143.916 Y103.23 E.0175
G1 X149.111 Y108.424 E.27232
G1 X148.864 Y108.827 E.01752
G1 X143.691 Y103.654 E.2712
G1 X143.5 Y104.114 E.01844
G1 X148.617 Y109.231 E.26824
G2 X148.41 Y109.673 I1.296 J.876 E.0182
G1 X143.367 Y104.63 E.26437
G2 X143.28 Y105.194 I1.734 J.556 E.02121
G1 X148.22 Y110.133 E.25895
G2 X148.056 Y110.62 I1.456 J.759 E.01911
G1 X143.241 Y105.805 E.25243
G1 X143.241 Y106.455 E.02409
G1 X147.931 Y111.144 E.24583
G2 X147.829 Y111.693 I1.682 J.595 E.02077
G1 X143.241 Y107.105 E.24052
G1 X143.241 Y107.755 E.02409
G1 X147.782 Y112.295 E.23803
G2 X147.759 Y112.922 I3.974 J.46 E.02328
G1 X143.241 Y108.405 E.23682
G1 X143.241 Y109.055 E.02409
G1 X147.759 Y113.572 E.23682
G1 X147.759 Y114.222 E.02409
G1 X143.241 Y109.705 E.23682
G1 X143.241 Y110.355 E.02409
G1 X147.759 Y114.872 E.23682
G1 X147.759 Y115.522 E.02409
G1 X143.241 Y111.005 E.23682
G1 X143.241 Y111.655 E.02409
G1 X147.759 Y116.172 E.23682
G1 X147.759 Y116.822 E.02409
G1 X143.241 Y112.304 E.23682
G1 X143.241 Y112.954 E.02409
G1 X147.759 Y117.472 E.23682
G1 X147.759 Y118.122 E.02409
G1 X143.241 Y113.604 E.23682
G1 X143.241 Y114.254 E.02409
G1 X147.759 Y118.772 E.23682
G1 X147.759 Y119.422 E.02409
G1 X143.241 Y114.904 E.23682
G1 X143.241 Y115.554 E.02409
G1 X147.759 Y120.072 E.23682
G1 X147.759 Y120.722 E.02409
G1 X143.241 Y116.204 E.23682
G1 X143.241 Y116.854 E.02409
G1 X147.759 Y121.372 E.23682
G1 X147.759 Y122.022 E.02409
G1 X143.241 Y117.504 E.23682
G1 X143.241 Y118.154 E.02409
G1 X147.759 Y122.672 E.23682
G1 X147.759 Y123.322 E.02409
