; HEADER_BLOCK_START
; generated by OrcaSlicer 2.3.0 on 2025-07-21 at 23:28:07
; total layer number: 230
;_GP_TOTAL_LAYER_NUMBER_PLACEHOLDER
; filament_density: 1.27
; filament_diameter: 1.75
; max_z_height: 46.00
; HEADER_BLOCK_END

; THUMBNAIL_BLOCK_START

;
; THUMBNAIL_BLOCK_END

; external perimeters extrusion width = 0.42mm
; perimeters extrusion width = 0.45mm
; infill extrusion width = 0.45mm
; solid infill extrusion width = 0.42mm
; top infill extrusion width = 0.42mm
; first layer extrusion width = 0.50mm

; external perimeters extrusion width = 0.42mm
; perimeters extrusion width = 0.45mm
; infill extrusion width = 0.45mm
; solid infill extrusion width = 0.42mm
; top infill extrusion width = 0.42mm
; first layer extrusion width = 0.50mm

; external perimeters extrusion width = 0.42mm
; perimeters extrusion width = 0.45mm
; infill extrusion width = 0.45mm
; solid infill extrusion width = 0.42mm
; top infill extrusion width = 0.42mm
; first layer extrusion width = 0.50mm

; EXECUTABLE_BLOCK_START
EXCLUDE_OBJECT_DEFINE NAME=Nema17-Bracket-Body-v2.stl_id_0_copy_0 CENTER=128.5,168 POLYGON=[[96.5,153],[160.5,153],[160.5,176],[149.5,183],[107.5,183],[96.5,176],[96.5,153]]
EXCLUDE_OBJECT_DEFINE NAME=Nema17-Bracket-Body-v2.stl_id_1_copy_0 CENTER=128.5,133 POLYGON=[[96.5,118],[160.5,118],[160.5,141],[149.5,148],[107.5,148],[96.5,141],[96.5,118]]
EXCLUDE_OBJECT_DEFINE NAME=Guide-Body.stl_id_2_copy_0 CENTER=128.5,93.5 POLYGON=[[109.5,74],[147.5,74],[147.5,113],[109.5,113],[109.5,74]]
M106 S0
M106 P2 S0
;TYPE:Custom
;;===== date: 20240520 =====================
;printer_model:Elegoo Centauri Carbon
;initial_filament:PETG
;curr_bed_type:Textured PEI Plate
M400 ; wait for buffer to clear
M220 S100 ;Set the feed speed to 100%
M221 S100 ;Set the flow rate to 100%
M104 S140
M190 S80
G90
SET_PRINT_STATS_INFO TOTAL_LAYER=230
G28 ;home
M729 ;Clean Nozzle


;=============turn on fans to prevent PLA jamming=================


;enable_pressure_advance:false
;This value is called if pressure advance is enabled

M204 S5000 ;Call exterior wall print acceleration


G1 X128.5 Y-1.2 F20000
G1 Z0.3 F900
M109 S245
M83
G92 E0 ;Reset Extruder
G1 F4800 
G1 X-1.2 E10.156 ;Draw the first line
G1 Y98.8 E7.934
G1 X-0.5 Y100 E0.1
G1 Y-0.3 E7.934
G1 X78.5 E6.284
G1 F960 
G1 X98.5 E2
G1 F4800 
G1 X118.5 E2
G1 F960 
G1 X138.5 E2
G1 F4800 
G1 X158.5 E2
G1 F4800 
G1 X178.5 E2
;End PA test.


G3 I-1 J0 Z0.6 F1200.0 ;Move to side a little
G1 F20000
G92 E0 ;Reset Extruder
;LAYER_COUNT:230
;LAYER:0
G90
G21
M83 ; use relative distances for extrusion
; Filament gcode
M106 P2 S0
;LAYER_CHANGE
;Z:0.2
;HEIGHT:0.2
;BEFORE_LAYER_CHANGE
;0.2
G92 E0

G1 E-.8 F1800
;LAYER:1
SET_PRINT_STATS_INFO CURRENT_LAYER=1

;_SET_FAN_SPEED_CHANGING_LAYER
SET_VELOCITY_LIMIT ACCEL=500
EXCLUDE_OBJECT_START NAME=Guide-Body.stl_id_2_copy_0
G1 X133.497 Y85.481 F30000
G1 Z.6
G1 Z.2
G1 E.8 F1800
;TYPE:Inner wall
;WIDTH:0.5
G1 F3000
G1 X133.597 Y85.057 E.01607
G1 X133.622 Y84.952 E.00396
G1 X133.941 Y84.317 E.02621
G1 X134.398 Y83.772 E.02622
G1 X134.969 Y83.348 E.02622
G1 X135.622 Y83.066 E.02621
G1 X135.978 Y83.003 E.01335
G1 X136.322 Y82.943 E.01287
G1 X137.032 Y82.984 E.02621
G1 X137.713 Y83.188 E.02621
G1 X138.329 Y83.543 E.02622
G1 X138.846 Y84.031 E.02621
G1 X139.237 Y84.626 E.02622
G1 X139.48 Y85.294 E.02622
G1 X139.563 Y86 E.02621
G1 X139.48 Y86.706 E.02622
G1 X139.237 Y87.374 E.02622
G1 X138.846 Y87.969 E.02622
G1 X138.329 Y88.457 E.02621
G1 X137.713 Y88.812 E.02622
G1 X137.032 Y89.016 E.02621
G1 X136.322 Y89.057 E.02622
G1 X135.622 Y88.934 E.02621
G1 X134.969 Y88.652 E.02621
G1 X134.398 Y88.228 E.02622
G1 X133.941 Y87.683 E.02622
G1 X133.622 Y87.047 E.02621
G1 X133.458 Y86.356 E.02621
G1 X133.458 Y85.644 E.02622
G1 X133.488 Y85.52 E.00471
G1 X133.942 Y85.587 F30000
;TYPE:Outer wall
G1 F3000
G1 X134.042 Y85.162 E.01607
G1 X134.326 Y84.57 E.02422
G1 X134.714 Y84.107 E.02228
G1 X135.199 Y83.746 E.02228
G1 X135.754 Y83.507 E.02228
G1 X136.058 Y83.453 E.01138
G1 X136.349 Y83.402 E.0109
G1 X136.952 Y83.437 E.02228
G1 X137.531 Y83.61 E.02228
G1 X138.054 Y83.913 E.02228
G1 X138.494 Y84.327 E.02228
G1 X138.826 Y84.832 E.02228
G1 X139.032 Y85.4 E.02228
G1 X139.102 Y86 E.02228
G1 X139.032 Y86.6 E.02228
G1 X138.826 Y87.168 E.02228
G1 X138.494 Y87.673 E.02228
G1 X138.054 Y88.087 E.02228
G1 X137.531 Y88.39 E.02228
G1 X136.952 Y88.563 E.02228
G1 X136.349 Y88.598 E.02228
G1 X135.754 Y88.493 E.02228
G1 X135.199 Y88.254 E.02228
G1 X134.951 Y88.069 E.01138
G1 X134.714 Y87.893 E.0109
G1 X134.326 Y87.43 E.02228
G1 X134.055 Y86.89 E.02228
G1 X133.915 Y86.302 E.02228
G1 X133.915 Y85.698 E.02228
G1 X133.932 Y85.625 E.00274
G1 E-.728 F1800
;WIPE_START
G1 F30000
G1 X134.042 Y85.162 E-.02855
G1 X134.326 Y84.57 E-.03941
G1 X134.369 Y84.518 E-.00404
;WIPE_END
G1 X126.775 Y83.751 Z.6
G1 X119.758 Y83.042 Z.6
G1 Z.2
G1 E.8 F1800
;TYPE:Inner wall
G1 F3000
G1 X119.978 Y83.003 E.00824
G1 X120.322 Y82.943 E.01287
G1 X121.032 Y82.984 E.02621
G1 X121.713 Y83.188 E.02622
G1 X122.329 Y83.543 E.02621
G1 X122.846 Y84.031 E.02622
G1 X123.237 Y84.626 E.02622
G1 X123.48 Y85.294 E.02622
G1 X123.563 Y86 E.02621
G1 X123.48 Y86.706 E.02622
G1 X123.237 Y87.374 E.02622
G1 X123.041 Y87.672 E.01311
G1 X122.846 Y87.969 E.01311
G1 X122.329 Y88.457 E.02621
G1 X121.713 Y88.812 E.02622
G1 X121.032 Y89.016 E.02621
G1 X120.322 Y89.057 E.02622
G1 X119.622 Y88.934 E.02621
G1 X118.969 Y88.652 E.02621
G1 X118.398 Y88.228 E.02622
G1 X117.941 Y87.683 E.02622
G1 X117.622 Y87.047 E.02621
G1 X117.458 Y86.356 E.02621
G1 X117.458 Y85.644 E.02622
G1 X117.622 Y84.953 E.02621
G1 X117.941 Y84.317 E.02621
G1 X118.398 Y83.772 E.02622
G1 X118.969 Y83.348 E.02622
G1 X119.622 Y83.066 E.02621
G1 X119.719 Y83.049 E.00364
G1 X119.838 Y83.492 F30000
;TYPE:Outer wall
G1 F3000
G1 X120.058 Y83.453 E.00824
G1 X120.349 Y83.402 E.0109
G1 X120.952 Y83.437 E.02228
G1 X121.531 Y83.61 E.02228
G1 X122.054 Y83.913 E.02228
G1 X122.494 Y84.327 E.02228
G1 X122.826 Y84.832 E.02228
G1 X123.032 Y85.4 E.02228
G1 X123.102 Y86 E.02228
G1 X123.032 Y86.6 E.02228
G1 X122.826 Y87.168 E.02228
G1 X122.66 Y87.42 E.01114
G1 X122.494 Y87.673 E.01114
G1 X122.054 Y88.087 E.02228
G1 X121.531 Y88.39 E.02228
G1 X120.952 Y88.563 E.02228
G1 X120.349 Y88.598 E.02228
G1 X119.754 Y88.493 E.02228
G1 X119.199 Y88.254 E.02228
G1 X118.714 Y87.893 E.02228
G1 X118.326 Y87.43 E.02228
G1 X118.055 Y86.89 E.02228
G1 X117.915 Y86.302 E.02228
G1 X117.915 Y85.698 E.02228
G1 X118.055 Y85.11 E.02228
G1 X118.326 Y84.57 E.02228
G1 X118.714 Y84.107 E.02228
G1 X119.199 Y83.746 E.02228
G1 X119.754 Y83.507 E.02228
G1 X119.798 Y83.499 E.00167
G1 E-.728 F1800
;WIPE_START
G1 F30000
G1 X120.058 Y83.453 E-.0158
G1 X120.349 Y83.402 E-.01774
G1 X120.952 Y83.437 E-.03625
G1 X120.987 Y83.448 E-.00221
;WIPE_END
G1 X115.053 Y78.647 Z.6
G1 X110.307 Y74.807 Z.6
G1 Z.2
G1 E.8 F1800
;TYPE:Inner wall
G1 F3000
G1 X146.693 Y74.807 E1.34141
G1 X146.693 Y112.193 E1.37827
G1 X143.529 Y112.193 E.11665
G1 X142.761 Y112.138 E.02837
G1 X142.038 Y111.981 E.0273
G1 X141.344 Y111.722 E.0273
G1 X140.694 Y111.367 E.0273
G1 X140.101 Y110.923 E.0273
G1 X139.577 Y110.399 E.0273
G1 X139.133 Y109.806 E.0273
G1 X138.778 Y109.156 E.0273
G1 X138.519 Y108.462 E.0273
G1 X138.362 Y107.739 E.0273
G1 X138.307 Y106.971 E.02837
G1 X138.307 Y103.971 E.1106
G1 X138.24 Y103.031 E.03475
G1 X138.033 Y102.082 E.03582
G1 X137.698 Y101.184 E.03534
G1 X137.229 Y100.319 E.03626
G1 X136.646 Y99.541 E.03585
G1 X135.959 Y98.854 E.03582
G1 X135.181 Y98.272 E.03582
G1 X134.329 Y97.806 E.03582
G1 X133.418 Y97.467 E.03582
G1 X132.469 Y97.26 E.03582
G1 X131.529 Y97.193 E.03475
G1 X125.471 Y97.193 E.22332
G1 X124.531 Y97.26 E.03475
G1 X123.582 Y97.467 E.03582
G1 X122.684 Y97.802 E.03534
G1 X121.819 Y98.271 E.03626
G1 X121.041 Y98.854 E.03585
G1 X120.354 Y99.541 E.03582
G1 X119.772 Y100.319 E.03582
G1 X119.312 Y101.16 E.03534
G1 X118.967 Y102.081 E.03626
G1 X118.76 Y103.031 E.03585
G1 X118.693 Y103.971 E.03475
G1 X118.693 Y106.971 E.1106
G1 X118.638 Y107.739 E.02837
G1 X118.481 Y108.462 E.0273
G1 X118.222 Y109.156 E.0273
G1 X117.867 Y109.806 E.0273
G1 X117.423 Y110.399 E.0273
G1 X116.899 Y110.923 E.0273
G1 X116.306 Y111.367 E.0273
G1 X115.656 Y111.722 E.0273
G1 X114.962 Y111.981 E.0273
G1 X114.239 Y112.138 E.0273
G1 X113.471 Y112.193 E.02837
G1 X110.307 Y112.193 E.11665
G1 X110.307 Y74.847 E1.3768
G1 X109.85 Y74.35 F30000
;TYPE:Outer wall
G1 F3000
G1 X147.15 Y74.35 E1.37511
G1 X147.15 Y112.65 E1.41197
G1 X143.512 Y112.65 E.1341
G1 X142.696 Y112.592 E.03018
G1 X141.908 Y112.42 E.02971
G1 X141.153 Y112.139 E.02971
G1 X140.446 Y111.752 E.02971
G1 X139.801 Y111.269 E.02971
G1 X139.231 Y110.699 E.02971
G1 X138.748 Y110.054 E.02971
G1 X138.361 Y109.347 E.02971
G1 X138.08 Y108.592 E.02971
G1 X137.908 Y107.804 E.02971
G1 X137.85 Y106.988 E.03018
G1 X137.85 Y103.987 E.1106
G1 X137.786 Y103.096 E.03294
G1 X137.594 Y102.211 E.03341
G1 X137.281 Y101.374 E.03294
G1 X136.843 Y100.567 E.03385
G1 X136.3 Y99.841 E.03342
G1 X135.659 Y99.2 E.03341
G1 X134.934 Y98.657 E.03341
G1 X134.138 Y98.223 E.03341
G1 X133.289 Y97.906 E.03341
G1 X132.404 Y97.714 E.03341
G1 X131.513 Y97.65 E.03294
G1 X125.487 Y97.65 E.22212
G1 X124.596 Y97.714 E.03294
G1 X123.711 Y97.906 E.03341
G1 X122.874 Y98.219 E.03294
G1 X122.067 Y98.657 E.03385
G1 X121.341 Y99.2 E.03342
G1 X120.7 Y99.841 E.03341
G1 X120.157 Y100.566 E.03341
G1 X119.729 Y101.351 E.03294
G1 X119.406 Y102.21 E.03385
G1 X119.214 Y103.096 E.03342
G1 X119.15 Y103.987 E.03294
G1 X119.15 Y106.988 E.1106
G1 X119.092 Y107.804 E.03018
G1 X118.92 Y108.592 E.02971
G1 X118.639 Y109.347 E.02971
G1 X118.252 Y110.054 E.02971
G1 X117.769 Y110.699 E.02971
G1 X117.199 Y111.269 E.02971
G1 X116.554 Y111.752 E.02971
G1 X115.847 Y112.139 E.02971
G1 X115.092 Y112.42 E.02971
G1 X114.304 Y112.592 E.02971
G1 X113.488 Y112.65 E.03018
G1 X109.85 Y112.65 E.1341
G1 X109.85 Y74.39 E1.4105
G1 E-.728 F1800
;WIPE_START
G1 F30000
G1 X111.05 Y74.389 E-.072
;WIPE_END
G1 X118.675 Y74.729 Z.6
G1 X146.464 Y75.967 Z.6
G1 Z.2
G1 E.8 F1800
;TYPE:Bottom surface
;WIDTH:0.503479
G1 F6300
G1 X145.739 Y75.241 E.03812
G1 X145.087 Y75.241 E.02419
G1 X146.259 Y76.413 E.06153
G1 X146.259 Y77.064 E.02419
G1 X144.436 Y75.241 E.09575
G1 X143.785 Y75.241 E.02419
G1 X146.259 Y77.715 E.12997
G1 X146.259 Y78.367 E.02419
G1 X143.133 Y75.241 E.16418
G1 X142.482 Y75.241 E.02419
G1 X146.259 Y79.018 E.1984
G1 X146.259 Y79.669 E.02419
G1 X141.831 Y75.241 E.23262
G1 X141.179 Y75.241 E.02419
G1 X146.259 Y80.321 E.26683
G1 X146.259 Y80.972 E.02419
G1 X140.528 Y75.241 E.30105
G1 X139.877 Y75.241 E.02419
G1 X146.259 Y81.623 E.33527
G1 X146.259 Y82.275 E.02419
G1 X139.225 Y75.241 E.36948
G1 X138.574 Y75.241 E.02419
G1 X146.259 Y82.926 E.4037
G1 X146.259 Y83.577 E.02419
G1 X137.923 Y75.241 E.43792
G1 X137.271 Y75.241 E.02419
G1 X146.259 Y84.229 E.47213
G1 X146.259 Y84.88 E.02419
G1 X136.62 Y75.241 E.50635
G1 X135.969 Y75.241 E.02419
G1 X146.259 Y85.531 E.54056
G1 X146.259 Y86.183 E.02419
G1 X135.317 Y75.241 E.57478
G1 X134.666 Y75.241 E.02419
G1 X146.259 Y86.834 E.609
G1 X146.259 Y87.485 E.02419
G1 X134.015 Y75.241 E.64321
G1 X133.363 Y75.241 E.02419
G1 X146.259 Y88.137 E.67743
G1 X146.259 Y88.788 E.02419
G1 X132.712 Y75.241 E.71165
G1 X132.061 Y75.241 E.02419
G1 X146.259 Y89.439 E.74586
G1 X146.259 Y90.091 E.02419
G1 X131.409 Y75.241 E.78008
G1 X130.758 Y75.241 E.02419
G1 X146.259 Y90.742 E.8143
G1 X146.259 Y91.393 E.02419
G1 X139.818 Y84.952 E.33836
G1 X139.627 Y84.429 E.02068
G1 X139.181 Y83.75 E.03019
G1 X138.59 Y83.193 E.03018
G1 X137.886 Y82.786 E.03019
G1 X137.552 Y82.686 E.01296
G1 X130.107 Y75.241 E.39112
G1 X129.455 Y75.241 E.02419
G1 X136.747 Y82.532 E.38303
G1 X136.297 Y82.506 E.01675
G1 X136.103 Y82.54 E.00729
G1 X128.804 Y75.241 E.38344
G1 X128.153 Y75.241 E.02419
G1 X135.549 Y82.638 E.38857
G1 X135.085 Y82.825 E.0186
G1 X127.502 Y75.241 E.39838
G1 X126.85 Y75.241 E.02419
G1 X134.651 Y83.043 E.40983
G1 X134.278 Y83.321 E.01729
G1 X126.199 Y75.241 E.42443
G1 X125.548 Y75.241 E.02419
G1 X133.944 Y83.638 E.44111
G1 X133.647 Y83.992 E.01717
G1 X124.896 Y75.241 E.45971
G1 X124.245 Y75.241 E.02419
G1 X133.41 Y84.407 E.48149
G1 X133.201 Y84.848 E.01816
G1 X123.594 Y75.241 E.50469
G1 X122.942 Y75.241 E.02419
G1 X133.076 Y85.375 E.53235
G1 X133.024 Y85.594 E.00835
G1 X133.024 Y85.974 E.01414
G1 X122.291 Y75.241 E.56384
G1 X121.64 Y75.241 E.02419
G1 X133.369 Y86.971 E.61619
G1 E-.728 F1800
;WIPE_START
G1 F30000
G1 X132.521 Y86.122 E-.072
;WIPE_END
G1 X139.737 Y85.523 Z.6
G1 Z.2
G1 E.8 F1800
G1 F6300
G1 X146.259 Y92.045 E.34261
G1 X146.259 Y92.696 E.02419
G1 X139.954 Y86.391 E.33121
G1 X139.905 Y86.807 E.01556
G1 X139.856 Y86.944 E.00541
G1 X146.259 Y93.347 E.33638
G1 X146.259 Y93.998 E.02419
G1 X139.682 Y87.422 E.34551
G1 X139.627 Y87.571 E.00589
G1 X139.45 Y87.841 E.01201
G1 X146.259 Y94.65 E.3577
G1 X146.259 Y95.301 E.02419
G1 X139.191 Y88.234 E.37127
G1 X138.859 Y88.553 E.01711
G1 X146.259 Y95.952 E.38872
G1 X146.259 Y96.604 E.02419
G1 X138.509 Y88.854 E.40712
G1 X138.096 Y89.092 E.01771
G1 X146.259 Y97.255 E.42882
G1 X146.259 Y97.906 E.02419
G1 X137.64 Y89.287 E.45279
G1 X137.138 Y89.437 E.01944
G1 X146.259 Y98.558 E.47912
G1 X146.259 Y99.209 E.02419
G1 X136.53 Y89.48 E.51109
G1 X136.297 Y89.494 E.00868
G1 X135.806 Y89.407 E.01852
G1 X146.259 Y99.86 E.54914
G1 X146.259 Y100.512 E.02419
G1 X120.988 Y75.241 E1.32755
G1 X120.337 Y75.241 E.02419
G1 X146.259 Y101.163 E1.36176
G1 X146.259 Y101.814 E.02419
G1 X119.686 Y75.241 E1.39598
G1 X119.034 Y75.241 E.02419
G1 X146.259 Y102.466 E1.4302
G1 X146.259 Y103.117 E.02419
G1 X118.383 Y75.241 E1.46441
G1 X117.732 Y75.241 E.02419
G1 X146.259 Y103.768 E1.49863
G1 X146.259 Y104.42 E.02419
G1 X117.08 Y75.241 E1.53285
G1 X116.429 Y75.241 E.02419
G1 X146.259 Y105.071 E1.56706
G1 X146.259 Y105.722 E.02419
G1 X115.778 Y75.241 E1.60128
G1 X115.126 Y75.241 E.02419
G1 X146.259 Y106.374 E1.63549
G1 X146.259 Y107.025 E.02419
G1 X114.475 Y75.241 E1.66971
G1 X113.824 Y75.241 E.02419
G1 X121.148 Y82.565 E.38476
G1 X120.446 Y82.515 E.02614
G1 X113.172 Y75.241 E.38211
G1 X112.521 Y75.241 E.02419
G1 X119.862 Y82.583 E.38567
G1 X119.496 Y82.647 E.01381
G1 X119.342 Y82.714 E.00624
G1 X111.87 Y75.241 E.39255
G1 X111.218 Y75.241 E.02419
G1 X118.887 Y82.91 E.40287
G1 X118.75 Y82.969 E.00554
G1 X118.489 Y83.163 E.01209
G1 X110.741 Y75.416 E.40702
G1 X110.741 Y76.067 E.02419
G1 X118.116 Y83.441 E.3874
G1 X117.815 Y83.792 E.01716
G1 X110.741 Y76.718 E.37161
G1 X110.741 Y77.37 E.02419
G1 X117.533 Y84.162 E.35681
G1 X117.316 Y84.595 E.01802
G1 X110.741 Y78.021 E.34537
G1 X110.741 Y78.672 E.02419
G1 X117.146 Y85.077 E.33648
G1 X117.024 Y85.606 E.02017
G1 X110.741 Y79.324 E.33005
G1 X110.741 Y79.975 E.02419
G1 X117.255 Y86.488 E.34217
G1 E-.728 F1800
;WIPE_START
G1 F30000
G1 X116.406 Y85.64 E-.072
;WIPE_END
G1 X123.636 Y85.053 Z.6
G1 Z.2
G1 E.8 F1800
G1 F6300
G1 X146.259 Y107.676 E1.18846
G1 X146.259 Y108.328 E.02419
G1 X123.993 Y86.062 E1.16972
G1 X123.924 Y86.645 E.02181
G1 X134.907 Y97.627 E.57694
G1 X135.417 Y97.906 E.02158
G1 X136.244 Y98.525 E.0384
G1 X136.975 Y99.256 E.0384
G1 X137.595 Y100.084 E.03844
G1 X137.87 Y100.591 E.02141
G1 X146.259 Y108.979 E.44067
G1 X146.259 Y109.63 E.02419
G1 X138.37 Y101.742 E.41442
G1 X138.451 Y101.959 E.00862
G1 X138.594 Y102.617 E.02502
G1 X146.259 Y110.282 E.40264
G1 X146.259 Y110.933 E.02419
G1 X138.7 Y103.374 E.3971
G3 X138.741 Y104.067 I-4.823 J.637 E.02581
G1 X146.259 Y111.584 E.39491
G1 X146.259 Y111.759 E.00648
G1 X145.782 Y111.759 E.01772
G1 X138.741 Y104.718 E.36986
G1 X138.741 Y105.37 E.02419
G1 X145.13 Y111.759 E.33564
G1 X144.479 Y111.759 E.02419
G1 X138.741 Y106.021 E.30142
G1 X138.741 Y106.672 E.02419
G1 X143.828 Y111.759 E.26721
G3 X143.148 Y111.73 I-.142 J-4.766 E.02529
G1 X138.77 Y107.352 E.23001
G2 X138.89 Y108.124 I2.744 J-.033 E.02912
G1 X142.376 Y111.61 E.18314
G1 X142.16 Y111.563 E.00821
G1 X141.524 Y111.326 E.0252
G1 X141.34 Y111.225 E.0078
G1 X138.874 Y108.759 E.12956
G1 E-.728 F1800
;WIPE_START
G1 F30000
G1 X139.722 Y109.607 E-.072
;WIPE_END
G1 X136.516 Y102.681 Z.6
G1 X134.108 Y97.48 Z.6
G1 Z.2
G1 E.8 F1800
G1 F6300
