; HEADER_BLOCK_START
; generated by OrcaSlicer 2.3.0 on 2025-07-21 at 22:38:55
; total layer number: 30
;_GP_TOTAL_LAYER_NUMBER_PLACEHOLDER
; filament_density: 1.27
; filament_diameter: 1.75
; max_z_height: 6.00
; HEADER_BLOCK_END

; THUMBNAIL_BLOCK_START

;
; THUMBNAIL_BLOCK_END

; external perimeters extrusion width = 0.42mm
; perimeters extrusion width = 0.45mm
; infill extrusion width = 0.45mm
; solid infill extrusion width = 0.42mm
; top infill extrusion width = 0.42mm
; first layer extrusion width = 0.50mm

; EXECUTABLE_BLOCK_START
EXCLUDE_OBJECT_DEFINE NAME=BasePlate-Body-1.stl_id_0_copy_0 CENTER=128.5,128.5 POLYGON=[[43,21],[214,21],[214,236],[43,236],[43,21]]
M106 S0
M106 P2 S0
;TYPE:Custom
;;===== date: 20240520 =====================
;printer_model:Elegoo Centauri Carbon
;initial_filament:PETG
;curr_bed_type:Textured PEI Plate
M400 ; wait for buffer to clear
M220 S100 ;Set the feed speed to 100%
M221 S100 ;Set the flow rate to 100%
M104 S140
M190 S80
G90
SET_PRINT_STATS_INFO TOTAL_LAYER=30
G28 ;home
M729 ;Clean Nozzle


;=============turn on fans to prevent PLA jamming=================


;enable_pressure_advance:false
;This value is called if pressure advance is enabled

M204 S5000 ;Call exterior wall print acceleration


G1 X128.5 Y-1.2 F20000
G1 Z0.3 F900
M109 S245
M83
G92 E0 ;Reset Extruder
G1 F4800 
G1 X-1.2 E10.156 ;Draw the first line
G1 Y98.8 E7.934
G1 X-0.5 Y100 E0.1
G1 Y-0.3 E7.934
G1 X78.5 E6.284
G1 F960 
G1 X98.5 E2
G1 F4800 
G1 X118.5 E2
G1 F960 
G1 X138.5 E2
G1 F4800 
G1 X158.5 E2
G1 F4800 
G1 X178.5 E2
;End PA test.


G3 I-1 J0 Z0.6 F1200.0 ;Move to side a little
G1 F20000
G92 E0 ;Reset Extruder
;LAYER_COUNT:30
;LAYER:0
G90
G21
M83 ; use relative distances for extrusion
; Filament gcode
M106 P2 S0
;LAYER_CHANGE
;Z:0.2
;HEIGHT:0.2
;BEFORE_LAYER_CHANGE
;0.2
G92 E0

G1 E-.8 F1800
;LAYER:1
SET_PRINT_STATS_INFO CURRENT_LAYER=1

;_SET_FAN_SPEED_CHANGING_LAYER
SET_VELOCITY_LIMIT ACCEL=500
EXCLUDE_OBJECT_START NAME=BasePlate-Body-1.stl_id_0_copy_0
G1 X189.732 Y111.987 F30000
G1 Z.6
G1 Z.2
G1 E.8 F1800
;TYPE:Inner wall
;WIDTH:0.5
G1 F3000
G1 X190.026 Y112.211 E.01363
G3 X187.772 Y111.451 I-2.026 J2.289 E.61799
G1 X187.924 Y111.444 E.00562
G3 X189.659 Y111.932 I.076 J3.056 E.06744
G1 X189.7 Y111.963 E.0019
G1 X189.456 Y112.35 F30000
;TYPE:Outer wall
G1 F3000
G1 X189.723 Y112.553 E.01237
G3 X187.806 Y111.907 I-1.723 J1.946 E.52556
G1 X187.935 Y111.901 E.00478
G3 X189.411 Y112.316 I.065 J2.599 E.05736
G1 X189.424 Y112.326 E.00063
G1 E-.728 F1800
;WIPE_START
G1 F30000
G1 X189.723 Y112.553 E-.02254
G1 X189.906 Y112.731 E-.01531
G1 X190.073 Y112.93 E-.01555
G1 X190.219 Y113.144 E-.01555
G1 X190.243 Y113.189 E-.00305
;WIPE_END
G1 X190.245 Y120.821 Z.6
G1 X190.259 Y170.442 Z.6
G1 Z.2
G1 E.8 F1800
;TYPE:Inner wall
G1 F3000
G1 X190.437 Y170.654 E.0102
G3 X187.772 Y169.451 I-2.437 J1.845 E.59568
G1 X187.924 Y169.444 E.00562
G3 X190.233 Y170.412 I.076 J3.056 E.09511
G1 X189.909 Y170.736 F30000
;TYPE:Outer wall
G1 F3000
G1 X190.072 Y170.93 E.00936
G3 X187.806 Y169.907 I-2.073 J1.569 E.50659
G1 X187.935 Y169.901 E.00478
G3 X189.882 Y170.706 I.065 J2.599 E.07998
G1 E-.728 F1800
;WIPE_START
G1 F30000
G1 X190.072 Y170.93 E-.01763
G1 X190.219 Y171.144 E-.01555
G1 X190.343 Y171.372 E-.01555
G1 X190.443 Y171.611 E-.01555
G1 X190.481 Y171.734 E-.00771
;WIPE_END
G1 X192.568 Y179.075 Z.6
G1 X205.591 Y224.892 Z.6
G1 Z.2
G1 E.8 F1800
;TYPE:Inner wall
G1 F3000
G1 X205.659 Y224.932 E.0029
G3 X203.772 Y224.451 I-1.659 J2.568 E.63502
G1 X203.924 Y224.444 E.00562
G3 X205.395 Y224.78 I.076 J3.056 E.0562
G1 X205.556 Y224.872 E.00686
G1 X205.362 Y225.288 F30000
;TYPE:Outer wall
G1 F3000
G1 X205.411 Y225.316 E.00206
G3 X203.806 Y224.907 I-1.411 J2.184 E.54005
G1 X203.935 Y224.901 E.00478
G3 X205.186 Y225.186 I.065 J2.599 E.0478
G1 X205.328 Y225.268 E.00602
G1 E-.728 F1800
;WIPE_START
G1 F30000
G1 X205.411 Y225.316 E-.00575
G1 X205.723 Y225.553 E-.02356
G1 X205.906 Y225.731 E-.01531
G1 X206.073 Y225.93 E-.01555
G1 X206.184 Y226.093 E-.01183
;WIPE_END
G1 X198.553 Y225.922 Z.6
G1 X85.071 Y223.373 Z.6
G1 Z.2
G1 E.8 F1800
;TYPE:Inner wall
G1 F3000
G1 X85.004 Y223.106 E.01015
G3 X87.772 Y219.451 I2.996 J-.606 E.1911
G1 X87.924 Y219.444 E.00562
G3 X85.082 Y223.411 I.076 J3.056 E.49973
G1 X85.514 Y223.26 F30000
;TYPE:Outer wall
G1 F3000
G1 X85.452 Y223.015 E.00931
G3 X87.806 Y219.907 I2.548 J-.516 E.16252
G1 X87.935 Y219.901 E.00478
G3 X85.526 Y223.298 I.065 J2.599 E.4241
G1 E-.728 F1800
;WIPE_START
G1 F30000
G1 X85.452 Y223.015 E-.01754
G1 X85.403 Y222.626 E-.02356
G1 X85.403 Y222.37 E-.01531
G1 X85.429 Y222.112 E-.01555
G1 X85.429 Y222.112 E-.00004
;WIPE_END
G1 X85.41 Y214.479 Z.6
G1 X84.952 Y34.697 Z.6
G1 Z.2
G1 E.8 F1800
;TYPE:Inner wall
G1 F3000
G1 X84.947 Y34.648 E.00182
G3 X87.772 Y31.451 I3.053 J-.148 E.17407
G1 X87.924 Y31.444 E.00562
G3 X85.004 Y35.106 I.076 J3.056 E.51137
G1 X84.957 Y34.737 E.01371
G1 X85.405 Y34.641 F30000
;TYPE:Outer wall
G1 F3000
G1 X85.403 Y34.626 E.00056
G3 X87.806 Y31.907 I2.597 J-.126 E.14802
G1 X87.935 Y31.901 E.00478
G3 X85.452 Y35.015 I.065 J2.599 E.4349
G1 X85.41 Y34.68 E.01243
G1 E-.728 F1800
;WIPE_START
G1 F30000
G1 X85.403 Y34.626 E-.00332
G1 X85.403 Y34.37 E-.01531
G1 X85.429 Y34.112 E-.01555
G1 X85.48 Y33.858 E-.01555
G1 X85.557 Y33.611 E-.01555
G1 X85.6 Y33.508 E-.00672
;WIPE_END
G1 X93.225 Y33.168 Z.6
G1 X201.166 Y28.359 Z.6
G1 Z.2
G1 E.8 F1800
;TYPE:Inner wall
G1 F3000
G1 X201.183 Y28.313 E.00184
G3 X203.772 Y26.451 I2.817 J1.187 E.12365
G1 X203.924 Y26.444 E.00562
G3 X201.079 Y28.599 I.076 J3.056 E.56757
G1 X201.152 Y28.397 E.00792
G1 X201.595 Y28.515 F30000
;TYPE:Outer wall
G1 F3000
G1 X201.604 Y28.49 E.001
G3 X203.806 Y26.907 I2.396 J1.009 E.10516
G1 X203.935 Y26.901 E.00478
G3 X201.516 Y28.734 I.065 J2.599 E.48269
G1 X201.581 Y28.553 E.00708
G1 E-.728 F1800
;WIPE_START
G1 F30000
G1 X201.604 Y28.49 E-.00402
G1 X201.717 Y28.256 E-.01555
G1 X201.852 Y28.035 E-.01555
G1 X202.008 Y27.829 E-.01555
G1 X202.184 Y27.639 E-.01555
G1 X202.257 Y27.575 E-.00577
;WIPE_END
G1 X202.658 Y35.197 Z.6
G1 X213.193 Y235.193 Z.6
G1 Z.2
G1 E.8 F1800
;TYPE:Inner wall
G1 F3000
G1 X43.807 Y235.193 E6.2446
G1 X43.807 Y21.807 E7.86671
G1 X213.193 Y21.807 E6.2446
G1 X213.193 Y235.153 E7.86524
G1 X213.65 Y235.65 F30000
;TYPE:Outer wall
G1 F3000
G1 X43.35 Y235.65 E6.2783
G1 X43.35 Y21.35 E7.90041
G1 X213.65 Y21.35 E6.2783
G1 X213.65 Y235.61 E7.89894
G1 E-.728 F1800
;WIPE_START
G1 F30000
G1 X212.45 Y235.61 E-.072
;WIPE_END
G1 X212.435 Y227.978 Z.6
G1 X212.039 Y22.036 Z.6
G1 Z.2
G1 E.8 F1800
;TYPE:Bottom surface
;WIDTH:0.50068
G1 F6300
G1 X212.759 Y22.755 E.03758
G1 X212.759 Y23.403 E.0239
G1 X211.597 Y22.241 E.06064
G1 X210.95 Y22.241 E.0239
G1 X212.759 Y24.05 E.09444
G1 X212.759 Y24.697 E.0239
G1 X210.303 Y22.241 E.12825
G1 X209.655 Y22.241 E.0239
G1 X212.759 Y25.345 E.16205
G1 X212.759 Y25.992 E.0239
G1 X209.008 Y22.241 E.19585
G1 X208.36 Y22.241 E.0239
G1 X212.759 Y26.64 E.22965
G1 X212.759 Y27.287 E.0239
G1 X207.713 Y22.241 E.26345
G1 X207.066 Y22.241 E.0239
G1 X212.759 Y27.934 E.29726
G1 X212.759 Y28.582 E.0239
G1 X206.418 Y22.241 E.33106
G1 X205.771 Y22.241 E.0239
G1 X212.759 Y29.229 E.36486
G1 X212.759 Y29.876 E.0239
G1 X205.124 Y22.241 E.39866
G1 X204.476 Y22.241 E.0239
G1 X212.759 Y30.524 E.43246
G1 X212.759 Y31.171 E.0239
G1 X203.829 Y22.241 E.46627
G1 X203.181 Y22.241 E.0239
G1 X212.759 Y31.819 E.50007
G1 X212.759 Y32.466 E.0239
G1 X202.534 Y22.241 E.53387
G1 X201.887 Y22.241 E.0239
G1 X212.759 Y33.113 E.56767
G1 X212.759 Y33.761 E.0239
G1 X207.265 Y28.267 E.28683
G2 X205.233 Y26.235 I-3.284 J1.252 E.10932
G1 X201.239 Y22.241 E.20852
G1 X200.592 Y22.241 E.0239
G1 X204.384 Y26.033 E.19798
G2 X203.726 Y26.023 I-.383 J3.516 E.02431
G1 X199.945 Y22.241 E.19746
G1 X199.297 Y22.241 E.0239
G1 X203.167 Y26.111 E.20206
G2 X202.68 Y26.271 I.557 J2.516 E.01897
G1 X198.65 Y22.241 E.21043
G1 X198.003 Y22.241 E.0239
G1 X202.244 Y26.482 E.22145
G2 X201.86 Y26.746 I1.124 J2.05 E.01722
G1 X197.355 Y22.241 E.2352
G1 X196.708 Y22.241 E.0239
G1 X201.517 Y27.05 E.25109
G2 X201.214 Y27.395 I4.13 J3.931 E.01694
G1 X196.06 Y22.241 E.26909
G1 X195.413 Y22.241 E.0239
G1 X200.96 Y27.789 E.28966
G2 X200.752 Y28.227 I2.087 J1.263 E.01796
G1 X194.766 Y22.241 E.31255
G1 X194.118 Y22.241 E.0239
G1 X200.599 Y28.722 E.33838
G2 X200.516 Y29.287 I2.779 J.696 E.0211
G1 X193.471 Y22.241 E.36786
G1 X192.824 Y22.241 E.0239
G1 X200.796 Y30.214 E.41626
G1 E-.728 F1800
;WIPE_START
G1 F30000
G1 X199.947 Y29.365 E-.072
;WIPE_END
G1 X207.221 Y28.871 Z.6
G1 Z.2
G1 E.8 F1800
G1 F6300
G1 X212.759 Y34.408 E.28914
G1 X212.759 Y35.055 E.0239
G1 X207.478 Y29.774 E.27574
G3 X207.39 Y30.334 I-2.838 J-.16 E.02094
G1 X212.759 Y35.703 E.28034
G1 X212.759 Y36.35 E.0239
G1 X207.229 Y30.82 E.28875
G3 X207.016 Y31.255 I-2.279 J-.846 E.0179
G1 X212.759 Y36.997 E.29986
G1 X212.759 Y37.645 E.0239
G1 X206.756 Y31.642 E.31344
G3 X206.449 Y31.983 I-1.858 J-1.361 E.01695
G1 X212.759 Y38.292 E.32943
G1 X212.759 Y38.94 E.0239
G1 X206.103 Y32.284 E.34752
G3 X205.713 Y32.541 I-2.787 J-3.8 E.01726
G1 X212.759 Y39.587 E.36789
G1 X212.759 Y40.234 E.0239
G1 X205.272 Y32.748 E.39092
G3 X204.781 Y32.904 I-1.025 J-2.378 E.01907
G1 X212.759 Y40.882 E.41657
G1 X212.759 Y41.529 E.0239
G1 X204.211 Y32.982 E.4463
G3 X203.54 Y32.957 I-.208 J-3.536 E.02485
G1 X212.759 Y42.176 E.48137
G1 X212.759 Y42.824 E.0239
G1 X202.654 Y32.719 E.52762
G3 X200.784 Y30.849 I1.311 J-3.181 E.10023
G1 X192.176 Y22.241 E.44943
G1 X191.529 Y22.241 E.0239
G1 X212.759 Y43.471 E1.1085
G1 X212.759 Y44.119 E.0239
G1 X190.881 Y22.241 E1.1423
G1 X190.234 Y22.241 E.0239
G1 X212.759 Y44.766 E1.17611
G1 X212.759 Y45.413 E.0239
G1 X189.587 Y22.241 E1.20991
G1 X188.939 Y22.241 E.0239
G1 X212.759 Y46.061 E1.24371
G1 X212.759 Y46.708 E.0239
G1 X188.292 Y22.241 E1.27751
G1 X187.645 Y22.241 E.0239
G1 X212.759 Y47.355 E1.31131
G1 X212.759 Y48.003 E.0239
G1 X186.997 Y22.241 E1.34512
G1 X186.35 Y22.241 E.0239
G1 X212.759 Y48.65 E1.37892
G1 X212.759 Y49.298 E.0239
G1 X185.702 Y22.241 E1.41272
G1 X185.055 Y22.241 E.0239
G1 X212.759 Y49.945 E1.44652
G1 X212.759 Y50.592 E.0239
G1 X184.408 Y22.241 E1.48032
G1 X183.76 Y22.241 E.0239
G1 X212.759 Y51.24 E1.51413
G1 X212.759 Y51.887 E.0239
G1 X183.113 Y22.241 E1.54793
G1 X182.466 Y22.241 E.0239
G1 X212.759 Y52.534 E1.58173
G1 X212.759 Y53.182 E.0239
G1 X181.818 Y22.241 E1.61553
G1 X181.171 Y22.241 E.0239
G1 X212.759 Y53.829 E1.64933
G1 X212.759 Y54.476 E.0239
G1 X180.524 Y22.241 E1.68313
G1 X179.876 Y22.241 E.0239
G1 X212.759 Y55.124 E1.71694
G1 X212.759 Y55.771 E.0239
G1 X179.229 Y22.241 E1.75074
G1 X178.581 Y22.241 E.0239
G1 X212.759 Y56.419 E1.78454
G1 X212.759 Y57.066 E.0239
G1 X177.934 Y22.241 E1.81834
G1 X177.287 Y22.241 E.0239
G1 X212.759 Y57.713 E1.85214
G1 X212.759 Y58.361 E.0239
G1 X176.639 Y22.241 E1.88595
G1 X175.992 Y22.241 E.0239
G1 X212.759 Y59.008 E1.91975
G1 X212.759 Y59.655 E.0239
G1 X175.345 Y22.241 E1.95355
G1 X174.697 Y22.241 E.0239
G1 X212.759 Y60.303 E1.98735
G1 X212.759 Y60.95 E.0239
G1 X174.05 Y22.241 E2.02115
G1 X173.402 Y22.241 E.0239
G1 X212.759 Y61.598 E2.05496
G1 X212.759 Y62.245 E.0239
G1 X172.755 Y22.241 E2.08876
G1 X172.108 Y22.241 E.0239
G1 X212.759 Y62.892 E2.12256
G1 X212.759 Y63.54 E.0239
G1 X171.46 Y22.241 E2.15636
G1 X170.813 Y22.241 E.0239
G1 X212.759 Y64.187 E2.19016
G1 X212.759 Y64.834 E.0239
G1 X170.166 Y22.241 E2.22397
G1 X169.518 Y22.241 E.0239
G1 X212.759 Y65.482 E2.25777
G1 X212.759 Y66.129 E.0239
G1 X168.871 Y22.241 E2.29157
G1 X168.223 Y22.241 E.0239
G1 X212.759 Y66.777 E2.32537
G1 X212.759 Y67.424 E.0239
G1 X167.576 Y22.241 E2.35917
G1 X166.929 Y22.241 E.0239
G1 X212.759 Y68.071 E2.39298
G1 X212.759 Y68.719 E.0239
G1 X166.281 Y22.241 E2.42678
G1 X165.634 Y22.241 E.0239
G1 X212.759 Y69.366 E2.46058
G1 X212.759 Y70.013 E.0239
G1 X164.987 Y22.241 E2.49438
G1 X164.339 Y22.241 E.0239
G1 X212.759 Y70.661 E2.52818
G1 X212.759 Y71.308 E.0239
G1 X163.692 Y22.241 E2.56198
G1 X163.045 Y22.241 E.0239
G1 X212.759 Y71.956 E2.59579
G1 X212.759 Y72.603 E.0239
G1 X162.397 Y22.241 E2.62959
G1 X161.75 Y22.241 E.0239
G1 X212.759 Y73.25 E2.66339
G1 X212.759 Y73.898 E.0239
G1 X161.102 Y22.241 E2.69719
G1 X160.455 Y22.241 E.0239
G1 X212.759 Y74.545 E2.73099
G1 X212.759 Y75.192 E.0239
G1 X159.808 Y22.241 E2.7648
G1 X159.16 Y22.241 E.0239
G1 X212.759 Y75.84 E2.7986
G1 X212.759 Y76.487 E.0239
G1 X158.513 Y22.241 E2.8324
G1 X157.866 Y22.241 E.0239
G1 X212.759 Y77.134 E2.8662
G1 X212.759 Y77.782 E.0239
G1 X157.218 Y22.241 E2.9
G1 X156.571 Y22.241 E.0239
G1 X212.759 Y78.429 E2.93381
G1 X212.759 Y79.077 E.0239
G1 X155.923 Y22.241 E2.96761
G1 X155.276 Y22.241 E.0239
G1 X212.759 Y79.724 E3.00141
G1 X212.759 Y80.371 E.0239
G1 X154.629 Y22.241 E3.03521
G1 X153.981 Y22.241 E.0239
G1 X212.759 Y81.019 E3.06901
G1 X212.759 Y81.666 E.0239
G1 X153.334 Y22.241 E3.10282
G1 X152.687 Y22.241 E.0239
G1 X212.759 Y82.313 E3.13662
G1 X212.759 Y82.961 E.0239
G1 X152.039 Y22.241 E3.17042
G1 X151.392 Y22.241 E.0239
G1 X212.759 Y83.608 E3.20422
G1 X212.759 Y84.256 E.0239
G1 X150.744 Y22.241 E3.23802
G1 X150.097 Y22.241 E.0239
G1 X212.759 Y84.903 E3.27183
G1 X212.759 Y85.55 E.0239
G1 X149.45 Y22.241 E3.30563
G1 X148.802 Y22.241 E.0239
G1 X212.759 Y86.198 E3.33943
G1 X212.759 Y86.845 E.0239
G1 X148.155 Y22.241 E3.37323
G1 X147.508 Y22.241 E.0239
G1 X212.759 Y87.492 E3.40703
G1 X212.759 Y88.14 E.0239
G1 X146.86 Y22.241 E3.44083
G1 X146.213 Y22.241 E.0239
G1 X212.759 Y88.787 E3.47464
G1 X212.759 Y89.435 E.0239
G1 X145.566 Y22.241 E3.50844
G1 X144.918 Y22.241 E.0239
G1 X212.759 Y90.082 E3.54224
G1 X212.759 Y90.729 E.0239
G1 X144.271 Y22.241 E3.57604
G1 X143.623 Y22.241 E.0239
G1 X212.759 Y91.377 E3.60984
G1 X212.759 Y92.024 E.0239
G1 X142.976 Y22.241 E3.64365
G1 X142.329 Y22.241 E.0239
G1 X212.759 Y92.671 E3.67745
G1 X212.759 Y93.319 E.0239
G1 X141.681 Y22.241 E3.71125
G1 X141.034 Y22.241 E.0239
G1 X212.759 Y93.966 E3.74505
G1 X212.759 Y94.613 E.0239
G1 X140.387 Y22.241 E3.77885
G1 X139.739 Y22.241 E.0239
G1 X212.759 Y95.261 E3.81266
G1 X212.759 Y95.908 E.0239
G1 X139.092 Y22.241 E3.84646
G1 X138.444 Y22.241 E.0239
G1 X212.759 Y96.556 E3.88026
G1 X212.759 Y97.203 E.0239
G1 X137.797 Y22.241 E3.91406
G1 X137.15 Y22.241 E.0239
G1 X212.759 Y97.85 E3.94786
G1 X212.759 Y98.498 E.0239
G1 X136.502 Y22.241 E3.98167
G1 X135.855 Y22.241 E.0239
G1 X212.759 Y99.145 E4.01547
G1 X212.759 Y99.792 E.0239
G1 X135.208 Y22.241 E4.04927
G1 X134.56 Y22.241 E.0239
G1 X212.759 Y100.44 E4.08307
G1 X212.759 Y101.087 E.0239
G1 X133.913 Y22.241 E4.11687
G1 X133.265 Y22.241 E.0239
G1 X212.759 Y101.735 E4.15068
G1 X212.759 Y102.382 E.0239
G1 X132.618 Y22.241 E4.18448
G1 X131.971 Y22.241 E.0239
G1 X212.759 Y103.029 E4.21828
G1 X212.759 Y103.677 E.0239
G1 X131.323 Y22.241 E4.25208
G1 X130.676 Y22.241 E.0239
G1 X212.759 Y104.324 E4.28588
G1 X212.759 Y104.971 E.0239
G1 X130.029 Y22.241 E4.31968
G1 X129.381 Y22.241 E.0239
G1 X212.759 Y105.619 E4.35349
G1 X212.759 Y106.266 E.0239
G1 X128.734 Y22.241 E4.38729
G1 X128.086 Y22.241 E.0239
G1 X212.759 Y106.914 E4.42109
G1 X212.759 Y107.561 E.0239
G1 X127.439 Y22.241 E4.45489
G1 X126.792 Y22.241 E.0239
G1 X212.759 Y108.208 E4.48869
G1 X212.759 Y108.856 E.0239
G1 X126.144 Y22.241 E4.5225
G1 X125.497 Y22.241 E.0239
G1 X212.759 Y109.503 E4.5563
G1 X212.759 Y110.15 E.0239
G1 X124.85 Y22.241 E4.5901
G1 X124.202 Y22.241 E.0239
G1 X212.759 Y110.798 E4.6239
G1 X212.759 Y111.445 E.0239
G1 X123.555 Y22.241 E4.6577
G1 X122.908 Y22.241 E.0239
G1 X212.759 Y112.092 E4.69151
G1 X212.759 Y112.74 E.0239
G1 X122.26 Y22.241 E4.72531
G1 X121.613 Y22.241 E.0239
G1 X212.759 Y113.387 E4.75911
G1 X212.759 Y114.035 E.0239
G1 X120.965 Y22.241 E4.79291
G1 X120.318 Y22.241 E.0239
G1 X212.759 Y114.682 E4.82671
G1 X212.759 Y115.329 E.0239
G1 X119.671 Y22.241 E4.86052
G1 X119.023 Y22.241 E.0239
G1 X212.759 Y115.977 E4.89432
G1 X212.759 Y116.624 E.0239
G1 X118.376 Y22.241 E4.92812
G1 X117.729 Y22.241 E.0239
G1 X212.759 Y117.271 E4.96192
G1 X212.759 Y117.919 E.0239
G1 X117.081 Y22.241 E4.99572
G1 X116.434 Y22.241 E.0239
G1 X212.759 Y118.566 E5.02953
G1 X212.759 Y119.214 E.0239
