; HEADER_BLOCK_START
; generated by OrcaSlicer 2.3.0 on 2025-07-21 at 23:19:40
; total layer number: 110
;_GP_TOTAL_LAYER_NUMBER_PLACEHOLDER
; filament_density: 1.27
; filament_diameter: 1.75
; max_z_height: 22.00
; HEADER_BLOCK_END

; THUMBNAIL_BLOCK_START

;
; THUMBNAIL_BLOCK_END

; external perimeters extrusion width = 0.42mm
; perimeters extrusion width = 0.45mm
; infill extrusion width = 0.45mm
; solid infill extrusion width = 0.42mm
; top infill extrusion width = 0.42mm
; first layer extrusion width = 0.50mm

; external perimeters extrusion width = 0.42mm
; perimeters extrusion width = 0.45mm
; infill extrusion width = 0.45mm
; solid infill extrusion width = 0.42mm
; top infill extrusion width = 0.42mm
; first layer extrusion width = 0.50mm

; external perimeters extrusion width = 0.42mm
; perimeters extrusion width = 0.45mm
; infill extrusion width = 0.45mm
; solid infill extrusion width = 0.42mm
; top infill extrusion width = 0.42mm
; first layer extrusion width = 0.50mm

; external perimeters extrusion width = 0.42mm
; perimeters extrusion width = 0.45mm
; infill extrusion width = 0.45mm
; solid infill extrusion width = 0.42mm
; top infill extrusion width = 0.42mm
; first layer extrusion width = 0.50mm

; EXECUTABLE_BLOCK_START
EXCLUDE_OBJECT_DEFINE NAME=FishingLineSpoolArm-Body.stl_id_0_copy_0 CENTER=149.5,128.5 POLYGON=[[139.5,53.5],[159.5,53.5],[159.5,197.5],[159.385,198.671],[159.043,199.796],[158.489,200.833],[157.743,201.743],[156.833,202.489],[155.796,203.043],[154.671,203.385],[153.5,203.5],[145.5,203.5],[144.329,203.385],[143.204,203.043],[142.167,202.489],[141.257,201.743],[140.511,200.833],[139.957,199.796],[139.615,198.671],[139.5,197.5],[139.5,53.5]]
EXCLUDE_OBJECT_DEFINE NAME=FishingLineSpoolArm-Body.stl_id_1_copy_0 CENTER=124.5,128.5 POLYGON=[[114.5,53.5],[134.5,53.5],[134.5,197.5],[134.385,198.671],[134.043,199.796],[133.489,200.833],[132.743,201.743],[131.833,202.489],[130.796,203.043],[129.671,203.385],[128.5,203.5],[120.5,203.5],[119.329,203.385],[118.204,203.043],[117.167,202.489],[116.257,201.743],[115.511,200.833],[114.957,199.796],[114.615,198.671],[114.5,197.5],[114.5,53.5]]
EXCLUDE_OBJECT_DEFINE NAME=PartLinker-Body.stl_id_2_copy_0 CENTER=103.5,126.47 POLYGON=[[97.5,115.47],[109.5,115.47],[109.5,137.47],[97.5,137.47],[97.5,115.47]]
EXCLUDE_OBJECT_DEFINE NAME=PartLinker-Body.stl_id_3_copy_0 CENTER=103.5,99.4702 POLYGON=[[97.5,88.4702],[109.5,88.4702],[109.5,110.47],[97.5,110.47],[97.5,88.4702]]
M106 S0
M106 P2 S0
;TYPE:Custom
;;===== date: 20240520 =====================
;printer_model:Elegoo Centauri Carbon
;initial_filament:PETG
;curr_bed_type:Textured PEI Plate
M400 ; wait for buffer to clear
M220 S100 ;Set the feed speed to 100%
M221 S100 ;Set the flow rate to 100%
M104 S140
M190 S80
G90
SET_PRINT_STATS_INFO TOTAL_LAYER=110
G28 ;home
M729 ;Clean Nozzle


;=============turn on fans to prevent PLA jamming=================


;enable_pressure_advance:false
;This value is called if pressure advance is enabled

M204 S5000 ;Call exterior wall print acceleration


G1 X128.5 Y-1.2 F20000
G1 Z0.3 F900
M109 S245
M83
G92 E0 ;Reset Extruder
G1 F4800 
G1 X-1.2 E10.156 ;Draw the first line
G1 Y98.8 E7.934
G1 X-0.5 Y100 E0.1
G1 Y-0.3 E7.934
G1 X78.5 E6.284
G1 F960 
G1 X98.5 E2
G1 F4800 
G1 X118.5 E2
G1 F960 
G1 X138.5 E2
G1 F4800 
G1 X158.5 E2
G1 F4800 
G1 X178.5 E2
;End PA test.


G3 I-1 J0 Z0.6 F1200.0 ;Move to side a little
G1 F20000
G92 E0 ;Reset Extruder
;LAYER_COUNT:110
;LAYER:0
G90
G21
M83 ; use relative distances for extrusion
; Filament gcode
M106 P2 S0
;LAYER_CHANGE
;Z:0.2
;HEIGHT:0.2
;BEFORE_LAYER_CHANGE
;0.2
G92 E0

G1 E-.8 F1800
;LAYER:1
SET_PRINT_STATS_INFO CURRENT_LAYER=1

;_SET_FAN_SPEED_CHANGING_LAYER
SET_VELOCITY_LIMIT ACCEL=500
EXCLUDE_OBJECT_START NAME=PartLinker-Body.stl_id_3_copy_0
G1 X103.2 Y107.505 F30000
G1 Z.6
G1 Z.2
G1 E.8 F1800
;TYPE:Inner wall
;WIDTH:0.5
G1 F3000
G1 X102.819 Y107.454 E.01416
G1 X102.297 Y107.284 E.02023
G1 X101.814 Y107.024 E.02023
G1 X101.385 Y106.682 E.02023
G1 X101.024 Y106.269 E.02023
G1 X100.743 Y105.798 E.02023
G1 X100.55 Y105.284 E.02023
G1 X100.452 Y104.744 E.02023
G1 X100.452 Y104.196 E.02023
G1 X100.55 Y103.656 E.02023
G1 X100.743 Y103.142 E.02023
G1 X101.024 Y102.671 E.02023
G1 X101.385 Y102.258 E.02023
G1 X101.814 Y101.916 E.02023
G1 X102.299 Y101.655 E.02029
G1 X102.831 Y101.485 E.02059
G1 X103.363 Y101.413 E.01979
G1 X103.911 Y101.438 E.02023
G1 X104.446 Y101.56 E.02023
G1 X104.95 Y101.775 E.02023
G1 X105.408 Y102.077 E.02023
G1 X105.805 Y102.457 E.02023
G1 X106.127 Y102.901 E.02023
G1 X106.365 Y103.395 E.02023
G1 X106.511 Y103.924 E.02023
G1 X106.56 Y104.47 E.02023
G1 X106.511 Y105.017 E.02023
G1 X106.365 Y105.545 E.02023
G1 X106.127 Y106.04 E.02023
G1 X105.805 Y106.484 E.02023
G1 X105.408 Y106.863 E.02023
G1 X104.95 Y107.165 E.02023
G1 X104.446 Y107.381 E.02023
G1 X103.911 Y107.503 E.02023
G1 X103.363 Y107.527 E.02023
G1 X103.239 Y107.511 E.00459
G1 X103.261 Y107.052 F30000
;TYPE:Outer wall
G1 F3000
G1 X102.923 Y106.999 E.01263
G3 X102.067 Y102.299 I.573 J-2.532 E.2236
G3 X102.932 Y101.933 I1.418 J2.142 E.03483
G3 X103.384 Y107.06 I.564 J2.534 E.32574
G1 X103.301 Y107.055 E.00305
G1 E-.728 F1800
;WIPE_START
G1 F30000
G1 X102.923 Y106.999 E-.02294
G1 X102.478 Y106.862 E-.02794
G1 X102.168 Y106.695 E-.02112
;WIPE_END
G1 X108.693 Y109.663 Z.6
G1 Z.2
G1 E.8 F1800
;TYPE:Inner wall
G1 F3000
G1 X98.307 Y109.663 E.38289
G1 X98.307 Y89.277 E.75155
G1 X108.693 Y89.277 E.38289
G1 X108.693 Y109.623 E.75007
G1 X109.15 Y110.12 F30000
;TYPE:Outer wall
G1 F3000
G1 X97.85 Y110.12 E.41659
G1 X97.85 Y88.82 E.78525
G1 X109.15 Y88.82 E.41659
G1 X109.15 Y110.08 E.78377
G1 E-.728 F1800
;WIPE_START
G1 F30000
G1 X107.95 Y110.084 E-.072
;WIPE_END
G1 X107.796 Y102.454 Z.6
G1 X107.533 Y89.506 Z.6
G1 Z.2
G1 E.8 F1800
;TYPE:Bottom surface
;WIDTH:0.503291
G1 F6300
G1 X108.259 Y90.231 E.03809
G1 X108.259 Y90.882 E.02418
G1 X107.088 Y89.711 E.06147
G1 X106.437 Y89.711 E.02418
G1 X108.259 Y91.533 E.09566
G1 X108.259 Y92.184 E.02418
G1 X105.786 Y89.711 E.12985
G1 X105.135 Y89.711 E.02418
G1 X108.259 Y92.835 E.16404
G1 X108.259 Y93.486 E.02418
G1 X104.484 Y89.711 E.19823
G1 X103.833 Y89.711 E.02418
G1 X108.259 Y94.137 E.23242
G1 X108.259 Y94.788 E.02418
G1 X103.182 Y89.711 E.2666
G1 X102.531 Y89.711 E.02418
G1 X108.259 Y95.44 E.30079
G1 X108.259 Y96.091 E.02418
G1 X101.88 Y89.711 E.33498
G1 X101.228 Y89.711 E.02418
G1 X108.259 Y96.742 E.36917
G1 X108.259 Y97.393 E.02418
G1 X100.577 Y89.711 E.40336
G1 X99.926 Y89.711 E.02418
G1 X108.259 Y98.044 E.43755
G1 X108.259 Y98.695 E.02418
G1 X99.275 Y89.711 E.47174
G1 X98.741 Y89.711 E.01983
G1 X98.741 Y89.829 E.00435
G1 X108.259 Y99.346 E.49978
G1 X108.259 Y99.997 E.02418
G1 X98.741 Y90.48 E.49978
G1 X98.741 Y91.131 E.02418
G1 X108.259 Y100.648 E.49978
G1 X108.259 Y101.299 E.02418
G1 X98.741 Y91.782 E.49978
G1 X98.741 Y92.433 E.02418
G1 X108.259 Y101.95 E.49978
G1 X108.259 Y102.601 E.02418
G1 X98.741 Y93.084 E.49978
G1 X98.741 Y93.735 E.02418
G1 X108.259 Y103.252 E.49978
G1 X108.259 Y103.903 E.02418
G1 X98.741 Y94.386 E.49978
G1 X98.741 Y95.037 E.02417
G1 X108.259 Y104.554 E.49978
G1 X108.259 Y105.206 E.02418
G1 X106.944 Y103.891 E.06903
G1 X106.996 Y104.47 E.02159
G1 X106.986 Y104.584 E.00424
G1 X108.259 Y105.857 E.06683
G1 X108.259 Y106.508 E.02417
G1 X106.92 Y105.169 E.07031
G1 X106.779 Y105.679 E.01965
G1 X108.259 Y107.159 E.07771
G1 X108.259 Y107.81 E.02418
G1 X106.57 Y106.121 E.08868
G3 X106.316 Y106.518 I-1.221 J-.501 E.0176
G1 X108.259 Y108.461 E.102
G1 X108.259 Y109.112 E.02418
G1 X106.023 Y106.876 E.11741
G1 X105.69 Y107.194 E.0171
G1 X107.725 Y109.229 E.10685
G1 X107.074 Y109.229 E.02418
G1 X105.3 Y107.455 E.09316
G3 X104.867 Y107.673 I-.818 J-1.084 E.0181
G1 X106.422 Y109.229 E.0817
G1 X105.771 Y109.229 E.02417
G1 X104.383 Y107.84 E.07291
G1 X103.969 Y107.935 E.01576
G1 X103.832 Y107.941 E.00509
G1 X105.12 Y109.229 E.06763
G1 X104.469 Y109.229 E.02418
G1 X102.941 Y107.701 E.08023
G1 E-.728 F1800
;WIPE_START
G1 F30000
G1 X103.79 Y108.55 E-.072
;WIPE_END
G1 X104.358 Y101.305 Z.6
G1 Z.2
G1 E.8 F1800
G1 F6300
G1 X98.741 Y95.688 E.29497
G1 X98.741 Y96.339 E.02418
G1 X103.381 Y100.979 E.24365
G1 X102.802 Y101.051 E.02168
G1 X98.741 Y96.99 E.21322
G1 X98.741 Y97.641 E.02418
G1 X102.299 Y101.199 E.18683
G2 X101.852 Y101.403 I.324 J1.305 E.01836
G1 X98.741 Y98.292 E.16333
G1 X98.741 Y98.943 E.02418
G1 X101.449 Y101.652 E.14221
G1 X101.087 Y101.94 E.0172
G1 X98.741 Y99.594 E.12319
G1 X98.741 Y100.246 E.02418
G1 X100.783 Y102.287 E.10722
G2 X100.517 Y102.673 I.929 J.924 E.01748
G1 X98.741 Y100.897 E.09327
G1 X98.741 Y101.548 E.02418
G1 X100.294 Y103.101 E.08156
G1 X100.122 Y103.58 E.0189
G1 X98.741 Y102.199 E.07253
G1 X98.741 Y102.85 E.02418
G1 X100.022 Y104.131 E.06728
G1 X100.018 Y104.777 E.024
G1 X98.741 Y103.501 E.06703
G1 X98.741 Y104.152 E.02418
G1 X100.214 Y105.624 E.07732
G1 X100.35 Y105.987 E.01439
G1 X100.671 Y106.525 E.02327
G1 X101.084 Y106.997 E.02327
G1 X101.574 Y107.388 E.02327
G1 X102.126 Y107.685 E.02327
G1 X102.346 Y107.757 E.0086
G1 X103.818 Y109.229 E.07731
G1 X103.167 Y109.229 E.02418
G1 X98.741 Y104.803 E.23241
G1 X98.741 Y105.454 E.02418
G1 X102.516 Y109.229 E.19822
G1 X101.865 Y109.229 E.02418
G1 X98.741 Y106.105 E.16403
G1 X98.741 Y106.756 E.02418
G1 X101.214 Y109.229 E.12985
G1 X100.563 Y109.229 E.02418
G1 X98.741 Y107.407 E.09566
G1 X98.741 Y108.058 E.02418
G1 X99.912 Y109.229 E.06147
G1 X99.261 Y109.229 E.02418
G1 X98.536 Y108.504 E.03808
G1 E-.728 F1800
;WIPE_START
G1 F30000
G1 X99.261 Y109.229 E-.06153
G1 X99.435 Y109.229 E-.01047
;WIPE_END
EXCLUDE_OBJECT_END NAME=PartLinker-Body.stl_id_3_copy_0
EXCLUDE_OBJECT_START NAME=PartLinker-Body.stl_id_2_copy_0
G1 X100.56 Y116.778 Z.6
G1 X103.2 Y134.505 Z.6
G1 Z.2
G1 E.8 F1800
;TYPE:Inner wall
;WIDTH:0.5
G1 F3000
G1 X102.819 Y134.454 E.01416
G1 X102.297 Y134.284 E.02023
G1 X101.814 Y134.024 E.02023
G1 X101.385 Y133.682 E.02023
G1 X101.024 Y133.269 E.02023
G1 X100.743 Y132.798 E.02023
G1 X100.55 Y132.284 E.02023
G1 X100.452 Y131.744 E.02023
G1 X100.452 Y131.196 E.02023
G1 X100.55 Y130.656 E.02023
G1 X100.743 Y130.142 E.02023
G1 X101.024 Y129.671 E.02023
G1 X101.385 Y129.258 E.02023
G1 X101.814 Y128.916 E.02023
G1 X102.299 Y128.655 E.02029
G1 X102.831 Y128.485 E.02059
G1 X103.363 Y128.413 E.01979
G1 X103.911 Y128.438 E.02023
G1 X104.446 Y128.56 E.02023
G1 X104.95 Y128.775 E.02023
G1 X105.408 Y129.077 E.02023
G1 X105.805 Y129.457 E.02023
G1 X106.127 Y129.901 E.02023
G1 X106.365 Y130.395 E.02023
G1 X106.511 Y130.924 E.02023
G1 X106.56 Y131.47 E.02023
G1 X106.511 Y132.017 E.02023
G1 X106.365 Y132.545 E.02023
G1 X106.127 Y133.04 E.02023
G1 X105.805 Y133.484 E.02023
G1 X105.408 Y133.863 E.02023
G1 X104.95 Y134.165 E.02023
G1 X104.446 Y134.381 E.02023
G1 X103.911 Y134.503 E.02023
G1 X103.363 Y134.527 E.02023
G1 X103.239 Y134.511 E.00459
G1 X103.261 Y134.052 F30000
;TYPE:Outer wall
G1 F3000
G1 X102.923 Y133.999 E.01263
G3 X102.067 Y129.299 I.573 J-2.532 E.2236
G3 X102.932 Y128.933 I1.418 J2.142 E.03483
G3 X103.384 Y134.06 I.564 J2.534 E.32574
G1 X103.301 Y134.055 E.00305
G1 E-.728 F1800
;WIPE_START
G1 F30000
G1 X102.923 Y133.999 E-.02294
G1 X102.478 Y133.862 E-.02794
G1 X102.168 Y133.695 E-.02112
;WIPE_END
G1 X108.693 Y136.663 Z.6
G1 Z.2
G1 E.8 F1800
;TYPE:Inner wall
G1 F3000
G1 X98.307 Y136.663 E.38289
G1 X98.307 Y116.277 E.75155
G1 X108.693 Y116.277 E.38289
G1 X108.693 Y136.623 E.75007
G1 X109.15 Y137.12 F30000
;TYPE:Outer wall
G1 F3000
G1 X97.85 Y137.12 E.41659
G1 X97.85 Y115.82 E.78525
G1 X109.15 Y115.82 E.41659
G1 X109.15 Y137.08 E.78377
G1 E-.728 F1800
;WIPE_START
G1 F30000
G1 X107.95 Y137.084 E-.072
;WIPE_END
G1 X107.796 Y129.454 Z.6
G1 X107.533 Y116.506 Z.6
G1 Z.2
G1 E.8 F1800
;TYPE:Bottom surface
;WIDTH:0.503291
G1 F6300
G1 X108.259 Y117.231 E.03809
G1 X108.259 Y117.882 E.02418
G1 X107.088 Y116.711 E.06147
G1 X106.437 Y116.711 E.02418
G1 X108.259 Y118.533 E.09566
G1 X108.259 Y119.184 E.02418
G1 X105.786 Y116.711 E.12985
G1 X105.135 Y116.711 E.02418
G1 X108.259 Y119.835 E.16404
G1 X108.259 Y120.486 E.02418
G1 X104.484 Y116.711 E.19823
G1 X103.833 Y116.711 E.02418
G1 X108.259 Y121.137 E.23242
G1 X108.259 Y121.788 E.02418
G1 X103.182 Y116.711 E.2666
G1 X102.531 Y116.711 E.02418
G1 X108.259 Y122.44 E.30079
G1 X108.259 Y123.091 E.02418
G1 X101.88 Y116.711 E.33498
G1 X101.228 Y116.711 E.02418
G1 X108.259 Y123.742 E.36917
G1 X108.259 Y124.393 E.02418
G1 X100.577 Y116.711 E.40336
G1 X99.926 Y116.711 E.02418
G1 X108.259 Y125.044 E.43755
G1 X108.259 Y125.695 E.02418
G1 X99.275 Y116.711 E.47174
G1 X98.741 Y116.711 E.01983
G1 X98.741 Y116.829 E.00435
G1 X108.259 Y126.346 E.49978
G1 X108.259 Y126.997 E.02418
G1 X98.741 Y117.48 E.49978
G1 X98.741 Y118.131 E.02418
G1 X108.259 Y127.648 E.49978
G1 X108.259 Y128.299 E.02418
G1 X98.741 Y118.782 E.49978
G1 X98.741 Y119.433 E.02418
G1 X108.259 Y128.95 E.49978
G1 X108.259 Y129.601 E.02418
G1 X98.741 Y120.084 E.49978
G1 X98.741 Y120.735 E.02418
G1 X108.259 Y130.252 E.49978
G1 X108.259 Y130.903 E.02418
G1 X98.741 Y121.386 E.49978
G1 X98.741 Y122.037 E.02417
G1 X108.259 Y131.554 E.49978
G1 X108.259 Y132.206 E.02418
G1 X106.944 Y130.891 E.06903
G1 X106.996 Y131.47 E.02159
G1 X106.986 Y131.584 E.00424
G1 X108.259 Y132.857 E.06683
G1 X108.259 Y133.508 E.02417
G1 X106.92 Y132.169 E.07031
G1 X106.779 Y132.679 E.01965
G1 X108.259 Y134.159 E.07771
G1 X108.259 Y134.81 E.02418
G1 X106.57 Y133.121 E.08868
G3 X106.316 Y133.518 I-1.221 J-.501 E.0176
G1 X108.259 Y135.461 E.102
G1 X108.259 Y136.112 E.02418
G1 X106.023 Y133.876 E.11741
G1 X105.69 Y134.194 E.0171
G1 X107.725 Y136.229 E.10685
G1 X107.074 Y136.229 E.02418
G1 X105.3 Y134.455 E.09316
G3 X104.867 Y134.673 I-.818 J-1.084 E.0181
G1 X106.422 Y136.229 E.0817
G1 X105.771 Y136.229 E.02417
G1 X104.383 Y134.84 E.07291
G1 X103.969 Y134.935 E.01576
G1 X103.832 Y134.941 E.00509
G1 X105.12 Y136.229 E.06763
G1 X104.469 Y136.229 E.02418
G1 X102.941 Y134.701 E.08023
G1 E-.728 F1800
;WIPE_START
G1 F30000
G1 X103.79 Y135.55 E-.072
;WIPE_END
G1 X104.358 Y128.305 Z.6
G1 Z.2
G1 E.8 F1800
G1 F6300
G1 X98.741 Y122.688 E.29497
G1 X98.741 Y123.339 E.02418
G1 X103.381 Y127.979 E.24365
G1 X102.802 Y128.051 E.02168
G1 X98.741 Y123.99 E.21322
G1 X98.741 Y124.641 E.02418
G1 X102.299 Y128.199 E.18683
G2 X101.852 Y128.403 I.324 J1.305 E.01836
G1 X98.741 Y125.292 E.16333
G1 X98.741 Y125.943 E.02418
G1 X101.449 Y128.652 E.14221
G1 X101.087 Y128.94 E.0172
G1 X98.741 Y126.594 E.12319
G1 X98.741 Y127.246 E.02418
G1 X100.783 Y129.287 E.10722
G2 X100.517 Y129.673 I.929 J.924 E.01748
G1 X98.741 Y127.897 E.09327
G1 X98.741 Y128.548 E.02418
G1 X100.294 Y130.101 E.08156
G1 X100.122 Y130.58 E.0189
G1 X98.741 Y129.199 E.07253
G1 X98.741 Y129.85 E.02418
G1 X100.022 Y131.131 E.06728
G1 X100.018 Y131.777 E.024
G1 X98.741 Y130.501 E.06703
G1 X98.741 Y131.152 E.02418
G1 X100.214 Y132.624 E.07732
G1 X100.35 Y132.987 E.01439
G1 X100.671 Y133.525 E.02327
G1 X101.084 Y133.997 E.02327
G1 X101.574 Y134.388 E.02327
G1 X102.126 Y134.685 E.02327
G1 X102.346 Y134.757 E.0086
G1 X103.818 Y136.229 E.07731
G1 X103.167 Y136.229 E.02418
G1 X98.741 Y131.803 E.23241
G1 X98.741 Y132.454 E.02418
G1 X102.516 Y136.229 E.19822
G1 X101.865 Y136.229 E.02418
G1 X98.741 Y133.105 E.16403
G1 X98.741 Y133.756 E.02418
G1 X101.214 Y136.229 E.12985
G1 X100.563 Y136.229 E.02418
G1 X98.741 Y134.407 E.09566
G1 X98.741 Y135.058 E.02418
G1 X99.912 Y136.229 E.06147
G1 X99.261 Y136.229 E.02418
G1 X98.536 Y135.504 E.03808
G1 E-.728 F1800
;WIPE_START
G1 F30000
G1 X99.261 Y136.229 E-.06153
G1 X99.435 Y136.229 E-.01047
;WIPE_END
EXCLUDE_OBJECT_END NAME=PartLinker-Body.stl_id_2_copy_0
EXCLUDE_OBJECT_START NAME=FishingLineSpoolArm-Body.stl_id_1_copy_0
G1 X102.384 Y143.269 Z.6
G1 X117.754 Y179.964 Z.6
G1 Z.2
G1 E.8 F1800
;TYPE:Inner wall
;WIDTH:0.5
G1 F3000
G1 X117.736 Y179.903 E.00235
G3 X117.693 Y179.545 I1.761 J-.396 E.01329
G1 X117.693 Y107.455 E2.6577
G1 X117.733 Y107.097 E.01328
G3 X119.455 Y105.693 I1.76 J.401 E.08821
G1 X129.545 Y105.693 E.372
G1 X129.903 Y105.733 E.01328
G3 X131.307 Y107.455 I-.401 J1.76 E.08821
G1 X131.307 Y179.545 E2.6577
