; HEADER_BLOCK_START
; generated by OrcaSlicer 2.3.0 on 2025-07-21 at 23:22:03
; total layer number: 110
;_GP_TOTAL_LAYER_NUMBER_PLACEHOLDER
; filament_density: 1.27
; filament_diameter: 1.75
; max_z_height: 22.00
; HEADER_BLOCK_END

; THUMBNAIL_BLOCK_START

;
; THUMBNAIL_BLOCK_END

; external perimeters extrusion width = 0.42mm
; perimeters extrusion width = 0.45mm
; infill extrusion width = 0.45mm
; solid infill extrusion width = 0.42mm
; top infill extrusion width = 0.42mm
; first layer extrusion width = 0.50mm

; external perimeters extrusion width = 0.42mm
; perimeters extrusion width = 0.45mm
; infill extrusion width = 0.45mm
; solid infill extrusion width = 0.42mm
; top infill extrusion width = 0.42mm
; first layer extrusion width = 0.50mm

; external perimeters extrusion width = 0.42mm
; perimeters extrusion width = 0.45mm
; infill extrusion width = 0.45mm
; solid infill extrusion width = 0.42mm
; top infill extrusion width = 0.42mm
; first layer extrusion width = 0.50mm

; external perimeters extrusion width = 0.42mm
; perimeters extrusion width = 0.45mm
; infill extrusion width = 0.45mm
; solid infill extrusion width = 0.42mm
; top infill extrusion width = 0.42mm
; first layer extrusion width = 0.50mm

; EXECUTABLE_BLOCK_START
EXCLUDE_OBJECT_DEFINE NAME=LimitSwitchArm-Body.stl_id_0_copy_0 CENTER=149.5,135.57 POLYGON=[[139.5,114.82],[139.551,114.036],[139.704,113.267],[139.957,112.523],[140.304,111.82],[140.74,111.167],[141.257,110.577],[141.847,110.059],[142.5,109.623],[143.204,109.276],[143.947,109.024],[144.717,108.871],[145.5,108.82],[153.5,108.82],[154.283,108.871],[155.053,109.024],[155.796,109.276],[156.5,109.623],[157.153,110.059],[157.743,110.577],[158.26,111.167],[158.696,111.82],[159.043,112.523],[159.296,113.267],[159.449,114.036],[159.5,114.82],[159.5,162.32],[139.5,162.32],[139.5,114.82]]
EXCLUDE_OBJECT_DEFINE NAME=LimitSwitchArm-Body.stl_id_1_copy_0 CENTER=124.5,135.57 POLYGON=[[114.5,114.82],[114.551,114.036],[114.704,113.267],[114.957,112.523],[115.304,111.82],[115.74,111.167],[116.257,110.577],[116.847,110.059],[117.5,109.623],[118.204,109.276],[118.947,109.024],[119.717,108.871],[120.5,108.82],[128.5,108.82],[129.283,108.871],[130.053,109.024],[130.796,109.276],[131.5,109.623],[132.153,110.059],[132.743,110.577],[133.26,111.167],[133.696,111.82],[134.043,112.523],[134.296,113.267],[134.449,114.036],[134.5,114.82],[134.5,162.32],[114.5,162.32],[114.5,114.82]]
EXCLUDE_OBJECT_DEFINE NAME=PartLinker-Body.stl_id_2_copy_0 CENTER=103.5,132.68 POLYGON=[[97.5,121.68],[109.5,121.68],[109.5,143.68],[97.5,143.68],[97.5,121.68]]
EXCLUDE_OBJECT_DEFINE NAME=PartLinker-Body.stl_id_3_copy_0 CENTER=103.5,105.68 POLYGON=[[97.5,94.6804],[109.5,94.6804],[109.5,116.68],[97.5,116.68],[97.5,94.6804]]
M106 S0
M106 P2 S0
;TYPE:Custom
;;===== date: 20240520 =====================
;printer_model:Elegoo Centauri Carbon
;initial_filament:PETG
;curr_bed_type:Textured PEI Plate
M400 ; wait for buffer to clear
M220 S100 ;Set the feed speed to 100%
M221 S100 ;Set the flow rate to 100%
M104 S140
M190 S80
G90
SET_PRINT_STATS_INFO TOTAL_LAYER=110
G28 ;home
M729 ;Clean Nozzle


;=============turn on fans to prevent PLA jamming=================


;enable_pressure_advance:false
;This value is called if pressure advance is enabled

M204 S5000 ;Call exterior wall print acceleration


G1 X128.5 Y-1.2 F20000
G1 Z0.3 F900
M109 S245
M83
G92 E0 ;Reset Extruder
G1 F4800 
G1 X-1.2 E10.156 ;Draw the first line
G1 Y98.8 E7.934
G1 X-0.5 Y100 E0.1
G1 Y-0.3 E7.934
G1 X78.5 E6.284
G1 F960 
G1 X98.5 E2
G1 F4800 
G1 X118.5 E2
G1 F960 
G1 X138.5 E2
G1 F4800 
G1 X158.5 E2
G1 F4800 
G1 X178.5 E2
;End PA test.


G3 I-1 J0 Z0.6 F1200.0 ;Move to side a little
G1 F20000
G92 E0 ;Reset Extruder
;LAYER_COUNT:110
;LAYER:0
G90
G21
M83 ; use relative distances for extrusion
; Filament gcode
M106 P2 S0
;LAYER_CHANGE
;Z:0.2
;HEIGHT:0.2
;BEFORE_LAYER_CHANGE
;0.2
G92 E0

G1 E-.8 F1800
;LAYER:1
SET_PRINT_STATS_INFO CURRENT_LAYER=1

;_SET_FAN_SPEED_CHANGING_LAYER
SET_VELOCITY_LIMIT ACCEL=500
EXCLUDE_OBJECT_START NAME=PartLinker-Body.stl_id_3_copy_0
G1 X103.2 Y113.716 F30000
G1 Z.6
G1 Z.2
G1 E.8 F1800
;TYPE:Inner wall
;WIDTH:0.5
G1 F3000
G1 X102.819 Y113.664 E.01416
G1 X102.297 Y113.495 E.02023
G1 X101.814 Y113.235 E.02023
G1 X101.385 Y112.892 E.02023
G1 X101.024 Y112.479 E.02023
G1 X100.743 Y112.008 E.02023
G1 X100.55 Y111.495 E.02023
G1 X100.452 Y110.955 E.02023
G1 X100.452 Y110.406 E.02023
G1 X100.55 Y109.866 E.02023
G1 X100.743 Y109.353 E.02023
G1 X101.024 Y108.882 E.02023
G1 X101.385 Y108.468 E.02023
G1 X101.814 Y108.126 E.02023
G1 X102.299 Y107.866 E.02029
G1 X102.831 Y107.695 E.02059
G1 X103.363 Y107.623 E.01979
G1 X103.911 Y107.648 E.02023
G1 X104.446 Y107.77 E.02023
G1 X104.95 Y107.986 E.02023
G1 X105.408 Y108.288 E.02023
G1 X105.805 Y108.667 E.02023
G1 X106.127 Y109.111 E.02023
G1 X106.365 Y109.605 E.02023
G1 X106.511 Y110.134 E.02023
G1 X106.56 Y110.68 E.02023
G1 X106.511 Y111.227 E.02023
G1 X106.365 Y111.756 E.02023
G1 X106.127 Y112.25 E.02023
G1 X105.805 Y112.694 E.02023
G1 X105.408 Y113.073 E.02023
G1 X104.95 Y113.375 E.02023
G1 X104.446 Y113.591 E.02023
G1 X103.911 Y113.713 E.02023
G1 X103.363 Y113.738 E.02023
G1 X103.239 Y113.721 E.00459
G1 X103.261 Y113.263 F30000
;TYPE:Outer wall
G1 F3000
G1 X102.923 Y113.209 E.01263
G3 X102.067 Y108.509 I.573 J-2.532 E.2236
G3 X102.932 Y108.143 I1.418 J2.142 E.03483
G3 X103.384 Y113.27 I.564 J2.534 E.32574
G1 X103.301 Y113.265 E.00305
G1 E-.728 F1800
;WIPE_START
G1 F30000
G1 X102.923 Y113.209 E-.02294
G1 X102.478 Y113.073 E-.02794
G1 X102.168 Y112.906 E-.02112
;WIPE_END
G1 X108.693 Y115.873 Z.6
G1 Z.2
G1 E.8 F1800
;TYPE:Inner wall
G1 F3000
G1 X98.307 Y115.873 E.38289
G1 X98.307 Y95.488 E.75155
G1 X108.693 Y95.488 E.38289
G1 X108.693 Y115.833 E.75007
G1 X109.15 Y116.33 F30000
;TYPE:Outer wall
G1 F3000
G1 X97.85 Y116.33 E.41659
G1 X97.85 Y95.03 E.78525
G1 X109.15 Y95.03 E.41659
G1 X109.15 Y116.29 E.78377
G1 E-.728 F1800
;WIPE_START
G1 F30000
G1 X107.95 Y116.295 E-.072
;WIPE_END
G1 X107.796 Y108.664 Z.6
G1 X107.533 Y95.716 Z.6
G1 Z.2
G1 E.8 F1800
;TYPE:Bottom surface
;WIDTH:0.503291
G1 F6300
G1 X108.259 Y96.441 E.03809
G1 X108.259 Y97.092 E.02418
G1 X107.088 Y95.922 E.06147
G1 X106.437 Y95.922 E.02418
G1 X108.259 Y97.743 E.09566
G1 X108.259 Y98.395 E.02418
G1 X105.786 Y95.922 E.12985
G1 X105.135 Y95.922 E.02418
G1 X108.259 Y99.046 E.16404
G1 X108.259 Y99.697 E.02418
G1 X104.484 Y95.922 E.19823
G1 X103.833 Y95.922 E.02418
G1 X108.259 Y100.348 E.23242
G1 X108.259 Y100.999 E.02418
G1 X103.182 Y95.922 E.2666
G1 X102.531 Y95.922 E.02418
G1 X108.259 Y101.65 E.30079
G1 X108.259 Y102.301 E.02418
G1 X101.88 Y95.922 E.33498
G1 X101.228 Y95.922 E.02418
G1 X108.259 Y102.952 E.36917
G1 X108.259 Y103.603 E.02418
G1 X100.577 Y95.922 E.40336
G1 X99.926 Y95.922 E.02418
G1 X108.259 Y104.254 E.43755
G1 X108.259 Y104.905 E.02418
G1 X99.275 Y95.922 E.47174
G1 X98.741 Y95.922 E.01983
G1 X98.741 Y96.039 E.00435
G1 X108.259 Y105.556 E.49978
G1 X108.259 Y106.207 E.02418
G1 X98.741 Y96.69 E.49978
G1 X98.741 Y97.341 E.02418
G1 X108.259 Y106.858 E.49978
G1 X108.259 Y107.509 E.02418
G1 X98.741 Y97.992 E.49978
G1 X98.741 Y98.643 E.02418
G1 X108.259 Y108.16 E.49978
G1 X108.259 Y108.812 E.02418
G1 X98.741 Y99.294 E.49978
G1 X98.741 Y99.945 E.02418
G1 X108.259 Y109.463 E.49978
G1 X108.259 Y110.114 E.02418
G1 X98.741 Y100.596 E.49978
G1 X98.741 Y101.247 E.02417
G1 X108.259 Y110.765 E.49978
G1 X108.259 Y111.416 E.02418
G1 X106.944 Y110.101 E.06903
G1 X106.996 Y110.68 E.02159
G1 X106.986 Y110.794 E.00424
G1 X108.259 Y112.067 E.06683
G1 X108.259 Y112.718 E.02417
G1 X106.92 Y111.379 E.07031
G1 X106.779 Y111.889 E.01965
G1 X108.259 Y113.369 E.07771
G1 X108.259 Y114.02 E.02418
G1 X106.57 Y112.331 E.08868
G3 X106.316 Y112.729 I-1.221 J-.501 E.0176
G1 X108.259 Y114.671 E.102
G1 X108.259 Y115.322 E.02418
G1 X106.023 Y113.086 E.11741
G1 X105.69 Y113.404 E.0171
G1 X107.725 Y115.439 E.10685
G1 X107.074 Y115.439 E.02418
G1 X105.3 Y113.665 E.09316
G3 X104.867 Y113.883 I-.818 J-1.084 E.0181
G1 X106.422 Y115.439 E.0817
G1 X105.771 Y115.439 E.02417
G1 X104.383 Y114.051 E.07291
G1 X103.969 Y114.145 E.01576
G1 X103.832 Y114.151 E.00509
G1 X105.12 Y115.439 E.06763
G1 X104.469 Y115.439 E.02418
G1 X102.941 Y113.911 E.08023
G1 E-.728 F1800
;WIPE_START
G1 F30000
G1 X103.79 Y114.76 E-.072
;WIPE_END
G1 X104.358 Y107.516 Z.6
G1 Z.2
G1 E.8 F1800
G1 F6300
G1 X98.741 Y101.898 E.29497
G1 X98.741 Y102.549 E.02418
G1 X103.381 Y107.189 E.24365
G1 X102.802 Y107.261 E.02168
G1 X98.741 Y103.201 E.21322
G1 X98.741 Y103.852 E.02418
G1 X102.299 Y107.409 E.18683
G2 X101.852 Y107.613 I.324 J1.305 E.01836
G1 X98.741 Y104.503 E.16333
G1 X98.741 Y105.154 E.02418
G1 X101.449 Y107.862 E.14221
G1 X101.087 Y108.151 E.0172
G1 X98.741 Y105.805 E.12319
G1 X98.741 Y106.456 E.02418
G1 X100.783 Y108.498 E.10722
G2 X100.517 Y108.883 I.929 J.924 E.01748
G1 X98.741 Y107.107 E.09327
G1 X98.741 Y107.758 E.02418
G1 X100.294 Y109.311 E.08156
G1 X100.122 Y109.79 E.0189
G1 X98.741 Y108.409 E.07253
G1 X98.741 Y109.06 E.02418
G1 X100.022 Y110.341 E.06728
G1 X100.018 Y110.988 E.024
G1 X98.741 Y109.711 E.06703
G1 X98.741 Y110.362 E.02418
G1 X100.214 Y111.835 E.07732
G1 X100.35 Y112.197 E.01439
G1 X100.671 Y112.736 E.02327
G1 X101.084 Y113.208 E.02327
G1 X101.574 Y113.598 E.02327
G1 X102.126 Y113.895 E.02327
G1 X102.346 Y113.967 E.0086
G1 X103.818 Y115.439 E.07731
G1 X103.167 Y115.439 E.02418
G1 X98.741 Y111.013 E.23241
G1 X98.741 Y111.664 E.02418
G1 X102.516 Y115.439 E.19822
G1 X101.865 Y115.439 E.02418
G1 X98.741 Y112.315 E.16403
G1 X98.741 Y112.966 E.02418
G1 X101.214 Y115.439 E.12985
G1 X100.563 Y115.439 E.02418
G1 X98.741 Y113.618 E.09566
G1 X98.741 Y114.269 E.02418
G1 X99.912 Y115.439 E.06147
G1 X99.261 Y115.439 E.02418
G1 X98.536 Y114.714 E.03808
G1 E-.728 F1800
;WIPE_START
G1 F30000
G1 X99.261 Y115.439 E-.06153
G1 X99.435 Y115.439 E-.01047
;WIPE_END
EXCLUDE_OBJECT_END NAME=PartLinker-Body.stl_id_3_copy_0
EXCLUDE_OBJECT_START NAME=PartLinker-Body.stl_id_2_copy_0
G1 X100.56 Y122.988 Z.6
G1 X103.2 Y140.716 Z.6
G1 Z.2
G1 E.8 F1800
;TYPE:Inner wall
;WIDTH:0.5
G1 F3000
G1 X102.819 Y140.664 E.01416
G1 X102.297 Y140.495 E.02023
G1 X101.814 Y140.235 E.02023
G1 X101.385 Y139.892 E.02023
G1 X101.024 Y139.479 E.02023
G1 X100.743 Y139.008 E.02023
G1 X100.55 Y138.495 E.02023
G1 X100.452 Y137.955 E.02023
G1 X100.452 Y137.406 E.02023
G1 X100.55 Y136.866 E.02023
G1 X100.743 Y136.353 E.02023
G1 X101.024 Y135.882 E.02023
G1 X101.385 Y135.468 E.02023
G1 X101.814 Y135.126 E.02023
G1 X102.299 Y134.866 E.02029
G1 X102.831 Y134.695 E.02059
G1 X103.363 Y134.623 E.01979
G1 X103.911 Y134.648 E.02023
G1 X104.446 Y134.77 E.02023
G1 X104.95 Y134.986 E.02023
G1 X105.408 Y135.288 E.02023
G1 X105.805 Y135.667 E.02023
G1 X106.127 Y136.111 E.02023
G1 X106.365 Y136.605 E.02023
G1 X106.511 Y137.134 E.02023
G1 X106.56 Y137.68 E.02023
G1 X106.511 Y138.227 E.02023
G1 X106.365 Y138.756 E.02023
G1 X106.127 Y139.25 E.02023
G1 X105.805 Y139.694 E.02023
G1 X105.408 Y140.073 E.02023
G1 X104.95 Y140.375 E.02023
G1 X104.446 Y140.591 E.02023
G1 X103.911 Y140.713 E.02023
G1 X103.363 Y140.738 E.02023
G1 X103.239 Y140.721 E.00459
G1 X103.261 Y140.263 F30000
;TYPE:Outer wall
G1 F3000
G1 X102.923 Y140.209 E.01263
G3 X102.067 Y135.509 I.573 J-2.532 E.2236
G3 X102.932 Y135.143 I1.418 J2.142 E.03483
G3 X103.384 Y140.27 I.564 J2.534 E.32574
G1 X103.301 Y140.265 E.00305
G1 E-.728 F1800
;WIPE_START
G1 F30000
G1 X102.923 Y140.209 E-.02294
G1 X102.478 Y140.073 E-.02794
G1 X102.168 Y139.906 E-.02112
;WIPE_END
G1 X108.693 Y142.873 Z.6
G1 Z.2
G1 E.8 F1800
;TYPE:Inner wall
G1 F3000
G1 X98.307 Y142.873 E.38289
G1 X98.307 Y122.488 E.75155
G1 X108.693 Y122.488 E.38289
G1 X108.693 Y142.833 E.75007
G1 X109.15 Y143.33 F30000
;TYPE:Outer wall
G1 F3000
G1 X97.85 Y143.33 E.41659
G1 X97.85 Y122.03 E.78525
G1 X109.15 Y122.03 E.41659
G1 X109.15 Y143.29 E.78377
G1 E-.728 F1800
;WIPE_START
G1 F30000
G1 X107.95 Y143.295 E-.072
;WIPE_END
G1 X107.796 Y135.664 Z.6
G1 X107.533 Y122.716 Z.6
G1 Z.2
G1 E.8 F1800
;TYPE:Bottom surface
;WIDTH:0.503291
G1 F6300
G1 X108.259 Y123.441 E.03809
G1 X108.259 Y124.092 E.02418
G1 X107.088 Y122.922 E.06147
G1 X106.437 Y122.922 E.02418
G1 X108.259 Y124.743 E.09566
G1 X108.259 Y125.395 E.02418
G1 X105.786 Y122.922 E.12985
G1 X105.135 Y122.922 E.02418
G1 X108.259 Y126.046 E.16404
G1 X108.259 Y126.697 E.02418
G1 X104.484 Y122.922 E.19823
G1 X103.833 Y122.922 E.02418
G1 X108.259 Y127.348 E.23242
G1 X108.259 Y127.999 E.02418
G1 X103.182 Y122.922 E.2666
G1 X102.531 Y122.922 E.02418
G1 X108.259 Y128.65 E.30079
G1 X108.259 Y129.301 E.02418
G1 X101.88 Y122.922 E.33498
G1 X101.228 Y122.922 E.02418
G1 X108.259 Y129.952 E.36917
G1 X108.259 Y130.603 E.02418
G1 X100.577 Y122.922 E.40336
G1 X99.926 Y122.922 E.02418
G1 X108.259 Y131.254 E.43755
G1 X108.259 Y131.905 E.02418
G1 X99.275 Y122.922 E.47174
G1 X98.741 Y122.922 E.01983
G1 X98.741 Y123.039 E.00435
G1 X108.259 Y132.556 E.49978
G1 X108.259 Y133.207 E.02418
G1 X98.741 Y123.69 E.49978
G1 X98.741 Y124.341 E.02418
G1 X108.259 Y133.858 E.49978
G1 X108.259 Y134.509 E.02418
G1 X98.741 Y124.992 E.49978
G1 X98.741 Y125.643 E.02418
G1 X108.259 Y135.16 E.49978
G1 X108.259 Y135.812 E.02418
G1 X98.741 Y126.294 E.49978
G1 X98.741 Y126.945 E.02418
G1 X108.259 Y136.463 E.49978
G1 X108.259 Y137.114 E.02418
G1 X98.741 Y127.596 E.49978
G1 X98.741 Y128.247 E.02417
G1 X108.259 Y137.765 E.49978
G1 X108.259 Y138.416 E.02418
G1 X106.944 Y137.101 E.06903
G1 X106.996 Y137.68 E.02159
G1 X106.986 Y137.794 E.00424
G1 X108.259 Y139.067 E.06683
G1 X108.259 Y139.718 E.02417
G1 X106.92 Y138.379 E.07031
G1 X106.779 Y138.889 E.01965
G1 X108.259 Y140.369 E.07771
G1 X108.259 Y141.02 E.02418
G1 X106.57 Y139.331 E.08868
G3 X106.316 Y139.729 I-1.221 J-.501 E.0176
G1 X108.259 Y141.671 E.102
G1 X108.259 Y142.322 E.02418
G1 X106.023 Y140.086 E.11741
G1 X105.69 Y140.404 E.0171
G1 X107.725 Y142.439 E.10685
G1 X107.074 Y142.439 E.02418
G1 X105.3 Y140.665 E.09316
G3 X104.867 Y140.883 I-.818 J-1.084 E.0181
G1 X106.422 Y142.439 E.0817
G1 X105.771 Y142.439 E.02417
G1 X104.383 Y141.051 E.07291
G1 X103.969 Y141.145 E.01576
G1 X103.832 Y141.151 E.00509
G1 X105.12 Y142.439 E.06763
G1 X104.469 Y142.439 E.02418
G1 X102.941 Y140.911 E.08023
G1 E-.728 F1800
;WIPE_START
G1 F30000
G1 X103.79 Y141.76 E-.072
;WIPE_END
G1 X104.358 Y134.516 Z.6
G1 Z.2
G1 E.8 F1800
G1 F6300
G1 X98.741 Y128.898 E.29497
G1 X98.741 Y129.549 E.02418
G1 X103.381 Y134.189 E.24365
G1 X102.802 Y134.261 E.02168
G1 X98.741 Y130.201 E.21322
G1 X98.741 Y130.852 E.02418
G1 X102.299 Y134.409 E.18683
G2 X101.852 Y134.613 I.324 J1.305 E.01836
G1 X98.741 Y131.503 E.16333
G1 X98.741 Y132.154 E.02418
G1 X101.449 Y134.862 E.14221
G1 X101.087 Y135.151 E.0172
G1 X98.741 Y132.805 E.12319
G1 X98.741 Y133.456 E.02418
G1 X100.783 Y135.498 E.10722
G2 X100.517 Y135.883 I.929 J.924 E.01748
G1 X98.741 Y134.107 E.09327
G1 X98.741 Y134.758 E.02418
G1 X100.294 Y136.311 E.08156
G1 X100.122 Y136.79 E.0189
G1 X98.741 Y135.409 E.07253
G1 X98.741 Y136.06 E.02418
G1 X100.022 Y137.341 E.06728
G1 X100.018 Y137.988 E.024
G1 X98.741 Y136.711 E.06703
G1 X98.741 Y137.362 E.02418
G1 X100.214 Y138.835 E.07732
G1 X100.35 Y139.197 E.01439
G1 X100.671 Y139.736 E.02327
G1 X101.084 Y140.208 E.02327
G1 X101.574 Y140.598 E.02327
G1 X102.126 Y140.895 E.02327
G1 X102.346 Y140.967 E.0086
G1 X103.818 Y142.439 E.07731
G1 X103.167 Y142.439 E.02418
G1 X98.741 Y138.013 E.23241
G1 X98.741 Y138.664 E.02418
G1 X102.516 Y142.439 E.19822
G1 X101.865 Y142.439 E.02418
G1 X98.741 Y139.315 E.16403
G1 X98.741 Y139.966 E.02418
G1 X101.214 Y142.439 E.12985
G1 X100.563 Y142.439 E.02418
G1 X98.741 Y140.618 E.09566
G1 X98.741 Y141.269 E.02418
G1 X99.912 Y142.439 E.06147
G1 X99.261 Y142.439 E.02418
G1 X98.536 Y141.714 E.03808
G1 E-.728 F1800
;WIPE_START
G1 F30000
G1 X99.261 Y142.439 E-.06153
G1 X99.435 Y142.439 E-.01047
;WIPE_END
EXCLUDE_OBJECT_END NAME=PartLinker-Body.stl_id_2_copy_0
EXCLUDE_OBJECT_START NAME=LimitSwitchArm-Body.stl_id_1_copy_0
G1 X107.068 Y142.425 Z.6
G1 X127.377 Y142.388 Z.6
G1 Z.2
G1 E.8 F1800
;TYPE:Inner wall
;WIDTH:0.5
G1 F3000
