; HEADER_BLOCK_START
; generated by OrcaSlicer 2.3.0 on 2025-07-21 at 23:17:56
; total layer number: 30
;_GP_TOTAL_LAYER_NUMBER_PLACEHOLDER
; filament_density: 1.27
; filament_diameter: 1.75
; max_z_height: 6.00
; HEADER_BLOCK_END

; THUMBNAIL_BLOCK_START

;
; THUMBNAIL_BLOCK_END

; external perimeters extrusion width = 0.42mm
; perimeters extrusion width = 0.45mm
; infill extrusion width = 0.45mm
; solid infill extrusion width = 0.42mm
; top infill extrusion width = 0.42mm
; first layer extrusion width = 0.50mm

; EXECUTABLE_BLOCK_START
EXCLUDE_OBJECT_DEFINE NAME=BasePlate-Body-2.stl_id_0_copy_0 CENTER=128.5,128.5 POLYGON=[[36.5,21],[220.5,21],[220.5,236],[36.5,236],[36.5,21]]
M106 S0
M106 P2 S0
;TYPE:Custom
;;===== date: 20240520 =====================
;printer_model:Elegoo Centauri Carbon
;initial_filament:PETG
;curr_bed_type:Textured PEI Plate
M400 ; wait for buffer to clear
M220 S100 ;Set the feed speed to 100%
M221 S100 ;Set the flow rate to 100%
M104 S140
M190 S80
G90
SET_PRINT_STATS_INFO TOTAL_LAYER=30
G28 ;home
M729 ;Clean Nozzle


;=============turn on fans to prevent PLA jamming=================


;enable_pressure_advance:false
;This value is called if pressure advance is enabled

M204 S5000 ;Call exterior wall print acceleration


G1 X128.5 Y-1.2 F20000
G1 Z0.3 F900
M109 S245
M83
G92 E0 ;Reset Extruder
G1 F4800 
G1 X-1.2 E10.156 ;Draw the first line
G1 Y98.8 E7.934
G1 X-0.5 Y100 E0.1
G1 Y-0.3 E7.934
G1 X78.5 E6.284
G1 F960 
G1 X98.5 E2
G1 F4800 
G1 X118.5 E2
G1 F960 
G1 X138.5 E2
G1 F4800 
G1 X158.5 E2
G1 F4800 
G1 X178.5 E2
;End PA test.


G3 I-1 J0 Z0.6 F1200.0 ;Move to side a little
G1 F20000
G92 E0 ;Reset Extruder
;LAYER_COUNT:30
;LAYER:0
G90
G21
M83 ; use relative distances for extrusion
; Filament gcode
M106 P2 S0
;LAYER_CHANGE
;Z:0.2
;HEIGHT:0.2
;BEFORE_LAYER_CHANGE
;0.2
G92 E0

G1 E-.8 F1800
;LAYER:1
SET_PRINT_STATS_INFO CURRENT_LAYER=1

;_SET_FAN_SPEED_CHANGING_LAYER
SET_VELOCITY_LIMIT ACCEL=500
EXCLUDE_OBJECT_START NAME=BasePlate-Body-2.stl_id_0_copy_0
G1 X94.59 Y120.308 F30000
G1 Z.6
G1 Z.2
G1 E.8 F1800
;TYPE:Inner wall
;WIDTH:0.5
G1 F3000
G1 X94.314 Y120.422 E.01102
G3 X92.931 Y115.506 I-.814 J-2.423 E.30547
G1 X93.182 Y115.462 E.0094
G3 X94.675 Y120.269 I.318 J2.537 E.26284
G1 X94.626 Y120.291 E.00196
G1 X94.411 Y119.888 F30000
;TYPE:Outer wall
G1 F3000
G1 X94.168 Y119.989 E.0097
G3 X93.033 Y115.952 I-.668 J-1.99 E.25082
G1 X93.239 Y115.916 E.00772
G3 X94.461 Y119.865 I.261 J2.083 E.21596
G1 X94.448 Y119.871 E.00055
G1 E-.728 F1800
;WIPE_START
G1 F30000
G1 X94.168 Y119.989 E-.01818
G1 X93.761 Y120.084 E-.02508
G1 X93.343 Y120.095 E-.0251
G1 X93.283 Y120.084 E-.00364
;WIPE_END
G1 X97.811 Y113.939 Z.6
G1 X118.381 Y86.019 Z.6
G1 Z.2
G1 E.8 F1800
;TYPE:Inner wall
G1 F3000
G1 X118.372 Y86.045 E.00104
G3 X115.272 Y81.951 I-2.872 J-1.046 E.48327
G1 X115.424 Y81.944 E.00562
G3 X118.462 Y85.754 I.076 J3.056 E.20794
G1 X118.393 Y85.981 E.00872
G1 X117.941 Y85.894 F30000
;TYPE:Outer wall
G1 F3000
G1 X117.842 Y86.128 E.00936
G3 X115.306 Y82.407 I-2.342 J-1.128 E.40145
G1 X115.435 Y82.401 E.00478
G3 X117.954 Y85.856 I.065 J2.599 E.18513
G1 E-.728 F1800
;WIPE_START
G1 F30000
G1 X117.842 Y86.128 E-.01762
G1 X117.719 Y86.356 E-.01555
G1 X117.573 Y86.57 E-.01555
G1 X117.406 Y86.769 E-.01555
G1 X117.314 Y86.858 E-.00772
;WIPE_END
G1 X117.019 Y79.232 Z.6
G1 X115.668 Y44.352 Z.6
G1 Z.2
G1 E.8 F1800
;TYPE:Inner wall
G1 F3000
G1 X115.683 Y44.313 E.00156
G3 X118.272 Y42.451 I2.817 J1.187 E.12365
G1 X118.424 Y42.444 E.00562
G3 X115.579 Y44.599 I.076 J3.056 E.56757
G1 X115.655 Y44.39 E.0082
G1 X116.097 Y44.508 F30000
;TYPE:Outer wall
G1 F3000
G1 X116.104 Y44.49 E.00072
G3 X118.306 Y42.907 I2.396 J1.009 E.10516
G1 X118.435 Y42.901 E.00478
G3 X116.016 Y44.734 I.065 J2.599 E.48269
G1 X116.084 Y44.546 E.00736
G1 E-.728 F1800
;WIPE_START
G1 F30000
G1 X116.104 Y44.49 E-.00357
G1 X116.217 Y44.256 E-.01555
G1 X116.352 Y44.035 E-.01555
G1 X116.508 Y43.829 E-.01555
G1 X116.685 Y43.639 E-.01555
G1 X116.762 Y43.57 E-.00622
;WIPE_END
G1 X109.13 Y43.541 Z.6
G1 X67.703 Y43.384 Z.6
G1 Z.2
G1 E.8 F1800
;TYPE:Inner wall
G1 F3000
G1 X67.741 Y43.421 E.00194
G3 X65.272 Y42.451 I-2.241 J2.079 E.60691
G1 X65.424 Y42.444 E.00562
G3 X67.526 Y43.211 I.076 J3.056 E.08447
G1 X67.675 Y43.356 E.00765
G1 X67.384 Y43.71 F30000
;TYPE:Outer wall
G1 F3000
G1 X67.406 Y43.732 E.00111
G3 X65.306 Y42.907 I-1.906 J1.768 E.51615
G1 X65.435 Y42.901 E.00478
G3 X67.223 Y43.553 I.065 J2.599 E.07185
G1 X67.356 Y43.682 E.00682
G1 E-.728 F1800
;WIPE_START
G1 F30000
G1 X67.406 Y43.732 E-.00421
G1 X67.573 Y43.93 E-.01555
G1 X67.719 Y44.144 E-.01555
G1 X67.843 Y44.372 E-.01555
G1 X67.943 Y44.611 E-.01555
G1 X67.971 Y44.7 E-.00558
;WIPE_END
G1 X61.637 Y40.441 Z.6
G1 X43.666 Y28.359 Z.6
G1 Z.2
G1 E.8 F1800
;TYPE:Inner wall
G1 F3000
G1 X43.683 Y28.313 E.00184
G3 X46.272 Y26.451 I2.817 J1.187 E.12365
G1 X46.424 Y26.444 E.00562
G3 X43.579 Y28.599 I.076 J3.056 E.56757
G1 X43.652 Y28.397 E.00792
G1 X44.095 Y28.515 F30000
;TYPE:Outer wall
G1 F3000
G1 X44.104 Y28.49 E.001
G3 X46.306 Y26.907 I2.396 J1.009 E.10516
G1 X46.435 Y26.901 E.00478
G3 X44.016 Y28.734 I.065 J2.599 E.48269
G1 X44.081 Y28.553 E.00708
G1 E-.728 F1800
;WIPE_START
G1 F30000
G1 X44.104 Y28.49 E-.00402
G1 X44.217 Y28.256 E-.01555
G1 X44.352 Y28.035 E-.01555
G1 X44.508 Y27.829 E-.01555
G1 X44.684 Y27.639 E-.01555
G1 X44.757 Y27.575 E-.00577
;WIPE_END
G1 X52.381 Y27.919 Z.6
G1 X181.864 Y33.766 Z.6
G1 Z.2
G1 E.8 F1800
;TYPE:Inner wall
G1 F3000
G1 X181.895 Y33.779 E.00123
G3 X180.272 Y33.451 I-1.395 J2.72 E.64624
G1 X180.424 Y33.444 E.00562
G3 X181.617 Y33.654 I.076 J3.056 E.04496
G1 X181.828 Y33.749 E.00853
G1 X181.677 Y34.182 F30000
;TYPE:Outer wall
G1 F3000
G1 X181.686 Y34.186 E.00039
G3 X180.306 Y33.907 I-1.186 J2.313 E.5496
G1 X180.435 Y33.901 E.00478
G3 X181.45 Y34.08 I.065 J2.599 E.03824
G1 X181.64 Y34.165 E.00769
G1 E-.728 F1800
;WIPE_START
G1 F30000
G1 X181.686 Y34.186 E-.00303
G1 X181.911 Y34.316 E-.01555
G1 X182.121 Y34.467 E-.01555
G1 X182.316 Y34.639 E-.01556
G1 X182.492 Y34.829 E-.01555
G1 X182.56 Y34.918 E-.00676
;WIPE_END
G1 X182.679 Y42.55 Z.6
G1 X183.47 Y93.221 Z.6
G1 Z.2
G1 E.8 F1800
;TYPE:Inner wall
G1 F3000
G1 X183.462 Y93.254 E.00126
G3 X180.272 Y89.451 I-2.962 J-.755 E.49451
G1 X180.424 Y89.444 E.00562
G3 X183.523 Y92.956 I.076 J3.056 E.19671
G1 X183.477 Y93.182 E.0085
G1 X183.022 Y93.13 F30000
;TYPE:Outer wall
G1 F3000
G1 X183.019 Y93.141 E.00042
G3 X180.306 Y89.907 I-2.519 J-.642 E.42056
G1 X180.435 Y89.901 E.00478
G3 X183.071 Y92.887 I.065 J2.599 E.16729
G1 X183.03 Y93.091 E.00766
G1 E-.728 F1800
;WIPE_START
G1 F30000
G1 X183.019 Y93.141 E-.00308
G1 X182.943 Y93.389 E-.01555
G1 X182.783 Y93.744 E-.02332
G1 X182.648 Y93.965 E-.01555
G1 X182.502 Y94.157 E-.0145
;WIPE_END
G1 X179.124 Y101.001 Z.6
G1 X116.808 Y227.24 Z.6
G1 Z.2
G1 E.8 F1800
;TYPE:Inner wall
G1 F3000
G1 X116.895 Y227.28 E.00353
G3 X115.272 Y226.951 I-1.395 J2.72 E.64626
G1 X115.424 Y226.944 E.00562
G3 X116.617 Y227.154 I.076 J3.056 E.04496
G1 X116.771 Y227.224 E.00623
G1 X116.62 Y227.656 F30000
;TYPE:Outer wall
G1 F3000
G1 X116.686 Y227.686 E.00269
G3 X115.306 Y227.407 I-1.186 J2.313 E.54961
G1 X115.435 Y227.401 E.00478
G3 X116.45 Y227.58 I.065 J2.599 E.03824
G1 X116.583 Y227.64 E.00539
G1 E-.728 F1800
;WIPE_START
G1 F30000
G1 X116.686 Y227.686 E-.00678
G1 X116.911 Y227.816 E-.01555
G1 X117.223 Y228.053 E-.02356
G1 X117.406 Y228.231 E-.01531
G1 X117.522 Y228.369 E-.0108
;WIPE_END
G1 X112.495 Y222.626 Z.6
G1 X91.085 Y198.165 Z.6
G1 Z.2
G1 E.8 F1800
;TYPE:Inner wall
G1 F3000
G1 X91.097 Y198.125 E.00151
G3 X92.931 Y196.506 I2.403 J.873 E.09404
G1 X93.182 Y196.462 E.0094
G3 X90.992 Y198.503 I.318 J2.537 E.47425
G1 X91.075 Y198.203 E.01148
G1 X91.532 Y198.269 F30000
;TYPE:Outer wall
G1 F3000
G1 X91.708 Y197.905 E.01491
G3 X93.033 Y196.952 I1.792 J1.094 E.06178
G1 X93.239 Y196.916 E.00772
G3 X91.518 Y198.306 I.261 J2.083 E.40033
G1 E-.728 F1800
;WIPE_START
G1 F30000
G1 X91.708 Y197.905 E-.02665
G1 X91.96 Y197.571 E-.02509
G1 X92.213 Y197.348 E-.02026
;WIPE_END
G1 X85.789 Y201.469 Z.6
G1 X48.627 Y225.309 Z.6
G1 Z.2
G1 E.8 F1800
;TYPE:Inner wall
G1 F3000
G1 X48.741 Y225.421 E.00586
G3 X46.272 Y224.451 I-2.241 J2.079 E.60692
G1 X46.424 Y224.444 E.00562
G3 X48.526 Y225.211 I.076 J3.056 E.08447
G1 X48.599 Y225.281 E.00373
G1 X48.308 Y225.636 F30000
;TYPE:Outer wall
G1 F3000
G1 X48.406 Y225.732 E.00503
G3 X46.306 Y224.907 I-1.906 J1.768 E.51615
G1 X46.435 Y224.901 E.00478
G3 X48.223 Y225.553 I.065 J2.599 E.07184
G1 X48.28 Y225.608 E.0029
G1 E-.728 F1800
;WIPE_START
G1 F30000
G1 X48.406 Y225.732 E-.01059
G1 X48.573 Y225.93 E-.01555
G1 X48.719 Y226.144 E-.01555
G1 X48.843 Y226.372 E-.01555
G1 X48.938 Y226.598 E-.01476
;WIPE_END
G1 X56.561 Y226.982 Z.6
G1 X219.693 Y235.193 Z.6
G1 Z.2
G1 E.8 F1800
;TYPE:Inner wall
G1 F3000
G1 X37.307 Y235.193 E6.72386
G1 X37.307 Y21.807 E7.86671
G1 X219.693 Y21.807 E6.72386
G1 X219.693 Y235.153 E7.86524
G1 X220.15 Y235.65 F30000
;TYPE:Outer wall
G1 F3000
G1 X36.85 Y235.65 E6.75756
G1 X36.85 Y21.35 E7.90041
G1 X220.15 Y21.35 E6.75756
G1 X220.15 Y235.61 E7.89894
G1 E-.728 F1800
;WIPE_START
G1 F30000
G1 X218.95 Y235.61 E-.072
;WIPE_END
G1 X218.935 Y227.978 Z.6
G1 X218.539 Y22.036 Z.6
G1 Z.2
G1 E.8 F1800
;TYPE:Bottom surface
;WIDTH:0.500741
G1 F6300
G1 X219.259 Y22.755 E.03759
G1 X219.259 Y23.403 E.02391
G1 X218.097 Y22.241 E.06066
G1 X217.45 Y22.241 E.02391
G1 X219.259 Y24.05 E.09447
G1 X219.259 Y24.698 E.02391
G1 X216.802 Y22.241 E.12828
G1 X216.155 Y22.241 E.02391
G1 X219.259 Y25.345 E.16209
G1 X219.259 Y25.993 E.02391
G1 X215.507 Y22.241 E.19591
G1 X214.86 Y22.241 E.02391
G1 X219.259 Y26.64 E.22972
G1 X219.259 Y27.288 E.02391
G1 X214.212 Y22.241 E.26353
G1 X213.565 Y22.241 E.02391
G1 X219.259 Y27.935 E.29734
G1 X219.259 Y28.583 E.02391
G1 X212.917 Y22.241 E.33115
G1 X212.27 Y22.241 E.02391
G1 X219.259 Y29.23 E.36496
G1 X219.259 Y29.878 E.02391
G1 X211.622 Y22.241 E.39877
G1 X210.975 Y22.241 E.02391
G1 X219.259 Y30.525 E.43258
G1 X219.259 Y31.172 E.02391
G1 X210.328 Y22.241 E.46639
G1 X209.68 Y22.241 E.02391
G1 X219.259 Y31.82 E.5002
G1 X219.259 Y32.467 E.02391
G1 X209.033 Y22.241 E.53401
G1 X208.385 Y22.241 E.02391
G1 X219.259 Y33.115 E.56783
G1 X219.259 Y33.762 E.02391
G1 X207.738 Y22.241 E.60164
G1 X207.09 Y22.241 E.02391
G1 X219.259 Y34.41 E.63545
G1 X219.259 Y35.057 E.02391
G1 X206.443 Y22.241 E.66926
G1 X205.795 Y22.241 E.02391
G1 X219.259 Y35.705 E.70307
G1 X219.259 Y36.352 E.02391
G1 X205.148 Y22.241 E.73688
G1 X204.5 Y22.241 E.02391
G1 X219.259 Y37 E.77069
G1 X219.259 Y37.647 E.02391
G1 X203.853 Y22.241 E.8045
G1 X203.206 Y22.241 E.02391
G1 X219.259 Y38.294 E.83831
G1 X219.259 Y38.942 E.02391
G1 X202.558 Y22.241 E.87212
G1 X201.911 Y22.241 E.02391
G1 X219.259 Y39.589 E.90594
G1 X219.259 Y40.237 E.02391
G1 X201.263 Y22.241 E.93975
G1 X200.616 Y22.241 E.02391
G1 X219.259 Y40.884 E.97356
G1 X219.259 Y41.532 E.02391
G1 X199.968 Y22.241 E1.00737
G1 X199.321 Y22.241 E.02391
G1 X219.259 Y42.179 E1.04118
G1 X219.259 Y42.827 E.02391
G1 X198.673 Y22.241 E1.07499
G1 X198.026 Y22.241 E.02391
G1 X219.259 Y43.474 E1.1088
G1 X219.259 Y44.122 E.02391
G1 X197.378 Y22.241 E1.14261
G1 X196.731 Y22.241 E.02391
G1 X219.259 Y44.769 E1.17642
G1 X219.259 Y45.416 E.02391
G1 X196.084 Y22.241 E1.21023
G1 X195.436 Y22.241 E.02391
G1 X219.259 Y46.064 E1.24404
G1 X219.259 Y46.711 E.02391
G1 X194.789 Y22.241 E1.27786
G1 X194.141 Y22.241 E.02391
G1 X219.259 Y47.359 E1.31167
G1 X219.259 Y48.006 E.02391
G1 X193.494 Y22.241 E1.34548
G1 X192.846 Y22.241 E.02391
G1 X219.259 Y48.654 E1.37929
G1 X219.259 Y49.301 E.02391
G1 X192.199 Y22.241 E1.4131
G1 X191.551 Y22.241 E.02391
G1 X219.259 Y49.949 E1.44691
G1 X219.259 Y50.596 E.02391
G1 X190.904 Y22.241 E1.48072
G1 X190.256 Y22.241 E.02391
G1 X219.259 Y51.244 E1.51453
G1 X219.259 Y51.891 E.02391
G1 X189.609 Y22.241 E1.54834
G1 X188.962 Y22.241 E.02391
G1 X219.259 Y52.538 E1.58215
G1 X219.259 Y53.186 E.02391
G1 X188.314 Y22.241 E1.61596
G1 X187.667 Y22.241 E.02391
G1 X219.259 Y53.833 E1.64978
G1 X219.259 Y54.481 E.02391
G1 X187.019 Y22.241 E1.68359
G1 X186.372 Y22.241 E.02391
G1 X219.259 Y55.128 E1.7174
G1 X219.259 Y55.776 E.02391
G1 X185.724 Y22.241 E1.75121
G1 X185.077 Y22.241 E.02391
G1 X219.259 Y56.423 E1.78502
G1 X219.259 Y57.071 E.02391
G1 X184.429 Y22.241 E1.81883
G1 X183.782 Y22.241 E.02391
G1 X219.259 Y57.718 E1.85264
G1 X219.259 Y58.366 E.02391
G1 X183.134 Y22.241 E1.88645
G1 X182.487 Y22.241 E.02391
G1 X219.259 Y59.013 E1.92026
G1 X219.259 Y59.661 E.02391
G1 X181.839 Y22.241 E1.95407
G1 X181.192 Y22.241 E.02391
G1 X219.259 Y60.308 E1.98789
G1 X219.259 Y60.955 E.02391
G1 X180.545 Y22.241 E2.0217
G1 X179.897 Y22.241 E.02391
G1 X219.259 Y61.603 E2.05551
G1 X219.259 Y62.25 E.02391
G1 X179.25 Y22.241 E2.08932
G1 X178.602 Y22.241 E.02391
G1 X219.259 Y62.898 E2.12313
G1 X219.259 Y63.545 E.02391
G1 X177.955 Y22.241 E2.15694
G1 X177.307 Y22.241 E.02391
G1 X219.259 Y64.193 E2.19075
G1 X219.259 Y64.84 E.02391
G1 X176.66 Y22.241 E2.22456
G1 X176.012 Y22.241 E.02391
G1 X219.259 Y65.488 E2.25837
G1 X219.259 Y66.135 E.02391
G1 X175.365 Y22.241 E2.29218
G1 X174.717 Y22.241 E.02391
G1 X219.259 Y66.783 E2.32599
G1 X219.259 Y67.43 E.02391
G1 X174.07 Y22.241 E2.35981
G1 X173.423 Y22.241 E.02391
G1 X219.259 Y68.077 E2.39362
G1 X219.259 Y68.725 E.02391
G1 X172.775 Y22.241 E2.42743
G1 X172.128 Y22.241 E.02391
G1 X219.259 Y69.372 E2.46124
G1 X219.259 Y70.02 E.02391
G1 X171.48 Y22.241 E2.49505
G1 X170.833 Y22.241 E.02391
G1 X181.894 Y33.303 E.57764
G3 X183.702 Y35.111 I-1.365 J3.172 E.09671
G1 X219.259 Y70.667 E1.85681
G1 X219.259 Y71.315 E.02391
G1 X183.948 Y36.004 E1.84396
G3 X183.986 Y36.69 I-3.85 J.558 E.02539
G1 X219.259 Y71.962 E1.84197
G1 X219.259 Y72.61 E.02391
G1 X183.905 Y37.256 E1.84619
G3 X183.756 Y37.755 I-3.886 J-.893 E.01922
G1 X219.259 Y73.257 E1.85398
G1 X219.259 Y73.905 E.02391
G1 X183.549 Y38.194 E1.86482
G3 X183.296 Y38.59 I-2.103 J-1.064 E.01734
G1 X219.259 Y74.552 E1.87799
G1 X219.259 Y75.199 E.02391
G1 X182.996 Y38.937 E1.89366
G3 X182.655 Y39.243 I-1.696 J-1.553 E.01696
G1 X219.259 Y75.847 E1.91151
G1 X219.259 Y76.494 E.02391
G1 X182.272 Y39.508 E1.93149
G3 X181.838 Y39.721 I-2.251 J-4.014 E.01786
G1 X219.259 Y77.142 E1.95413
G1 X219.259 Y77.789 E.02391
G1 X181.353 Y39.883 E1.9795
G3 X180.797 Y39.975 I-.891 J-3.653 E.02081
G1 X219.259 Y78.437 E2.0085
G1 X219.259 Y79.084 E.02391
G1 X179.905 Y39.73 E2.0551
G1 E-.728 F1800
;WIPE_START
G1 F30000
G1 X180.753 Y40.579 E-.072
;WIPE_END
G1 X181.248 Y33.304 Z.6
G1 Z.2
G1 E.8 F1800
G1 F6300
G1 X170.185 Y22.241 E.57772
G1 X169.538 Y22.241 E.02391
G1 X180.313 Y33.016 E.56269
G2 X179.741 Y33.092 I.093 J2.895 E.02133
G1 X168.89 Y22.241 E.56665
G1 X168.243 Y22.241 E.02391
G1 X179.247 Y33.245 E.57463
G2 X178.804 Y33.45 I.802 J2.314 E.01804
G1 X167.595 Y22.241 E.58533
G1 X166.948 Y22.241 E.02391
G1 X178.411 Y33.705 E.59863
G2 X178.064 Y34.004 I1.322 J1.885 E.01698
G1 X166.301 Y22.241 E.61428
G1 X165.653 Y22.241 E.02391
G1 X177.756 Y34.344 E.63203
G2 X177.493 Y34.729 I3.669 J2.789 E.01721
G1 X165.006 Y22.241 E.65211
G1 X164.358 Y22.241 E.02391
G1 X177.279 Y35.162 E.67474
G2 X177.115 Y35.645 I4.651 J1.853 E.01885
G1 X163.711 Y22.241 E.69996
G1 X163.063 Y22.241 E.02391
G1 X177.025 Y36.203 E.72908
G2 X177.03 Y36.856 I3.525 J.295 E.02416
G1 X162.416 Y22.241 E.76319
G1 X161.768 Y22.241 E.02391
G1 X177.217 Y37.69 E.80676
G2 X179.305 Y39.778 I3.271 J-1.183 E.11258
G1 X219.259 Y79.732 E2.08645
G1 X219.259 Y80.379 E.02391
G1 X161.121 Y22.241 E3.03602
G1 X160.473 Y22.241 E.02391
G1 X219.259 Y81.027 E3.06983
G1 X219.259 Y81.674 E.02391
G1 X159.826 Y22.241 E3.10365
G1 X159.179 Y22.241 E.02391
G1 X219.259 Y82.321 E3.13746
G1 X219.259 Y82.969 E.02391
G1 X158.531 Y22.241 E3.17127
G1 X157.884 Y22.241 E.02391
G1 X219.259 Y83.616 E3.20508
G1 X219.259 Y84.264 E.02391
G1 X157.236 Y22.241 E3.23889
G1 X156.589 Y22.241 E.02391
G1 X219.259 Y84.911 E3.2727
G1 X219.259 Y85.559 E.02391
G1 X155.941 Y22.241 E3.30651
G1 X155.294 Y22.241 E.02391
G1 X219.259 Y86.206 E3.34032
G1 X219.259 Y86.854 E.02391
G1 X154.646 Y22.241 E3.37413
G1 X153.999 Y22.241 E.02391
